X:1
T:Piano Sonata Op.27-1
T:SONATE
T:L.v.Beethoven, Op.10 No.2
T:für das Pianoforte
C:L.v.Beethoven
%%score { ( 1 3 5 ) | ( 2 4 6 ) }
L:1/8
Q:1/4=80
M:2/4
K:F
V:1 treble nm="グランドピアノ" snm="Pno."
V:3 treble 
V:5 treble 
V:2 bass 
V:4 bass 
V:6 bass 
V:1
!p!"^Allegro" !wedge!.[A,CFA] |[Q:1/4=102] .[CFAc]2 z!p! (3(c/=B/d/) | %2
 c2 z[Q:1/4=82]!p! !wedge!.[CFA] |[Q:1/4=104] .[CGB]2 z!p! (3(B/A/c/) | B2 z[Q:1/4=90] (B | %5
[Q:1/4=102]!<(! A/>c/ f2 e | f a2!<)!!p!!>(! g- |[Q:1/4=100] g a2 b/c'/)!>)![Q:1/4=95] | %8
!p![Q:1/4=90] (c'b) z2 | (Tb[Q:1/4=104] d'2 c'/b/) |[Q:1/4=90]{abc'} (b[Q:1/4=100]a- a/>g/b/>g/) | %11
[Q:1/4=95] (gf-[Q:1/4=90] f/>e/g/>e/) | f2 z!p![Q:1/4=82] !wedge!.[A,CFA] | %13
[Q:1/4=102] .[CFAc]2 z!p! (3(c/=B/d/) | c2 z!p![Q:1/4=80] !wedge!.[A,C^DA] | %15
[Q:1/4=100] .[C^DAc]2 z (3(c/=B/=d/) | .c2 z[Q:1/4=100]!f! (3(c/=B/A/ | %17
 .e)(3(c/=B/A/ .e)(3(c/B/A/ |[Q:1/4=90] .e2) z!p![Q:1/4=86] [=G,=G] | %19
[Q:1/4=96]!<(! ([E,E]2 [G,CEG]2 | [CEGc]3)[Q:1/4=92] ([Ee] | %21
[Q:1/4=94] [Gg]!<)!!>(! [cc']2[Q:1/4=90] [ee']/[dd']/) | %22
[Q:1/4=94] (([cc']2!>)! [=B=b]))[Q:1/4=92] z |[Q:1/4=94]!mp!!<(! ([=B,DF=B]2 [DFBd]2[Q:1/4=96] | %24
 [F=Bdf]3)[Q:1/4=92] ([=B=b] |[Q:1/4=94] [dd']!<)!!>(! [ff']2[Q:1/4=90] [ee']) | %26
[Q:1/4=92] (([dd']2!>)!!mp! [cc'])) z |!ff![Q:1/4=96] [EGce]2 [Gceg]2 | [cc']3[Q:1/4=92] [^c^c']- | %29
[Q:1/4=94] ([cc'] [dd']2[Q:1/4=90] [=c=c']) |[Q:1/4=92] x2[Q:1/4=100] z!p! !wedge!.^f | g2 z x | %32
 x2 z !wedge!.^f | g2 z x | (c'/=b/a/g/) z !wedge!.c' | (c'/=b/a/g/) z !wedge!.c' | %36
 (c'/=b/a/g/ ^f/g/a/g/ |[Q:1/4=96] ^f/g/a/g/[Q:1/4=92] f/g/[Q:1/4=86]^g/[Q:1/4=76].a/) | %38
!p![Q:1/4=95]!>(! (a!p!.f)!>)!.d[Q:1/4=90]!invertedturn!f | %39
!p![Q:1/4=95]!>(! (a!p!.f)!>)!.d[Q:1/4=90]!invertedturn!f | .[Adf] z .[G=Bd] z | %41
 .[EGce]2 z!f![Q:1/4=100] z/4 (g/4_e/4G/4 | %42
!ff! z/4 _a/4f/4G/4 z/4!>(! f/4d/4G/4 z/4 d/4=B/4!>)!!f!G/4 z/4!<(! _e/4c/4G/4)!<)! | %43
!ff! z/4 (_a/4f/4G/4 z/4!>(! f/4d/4G/4 z/4 d/4=B/4!>)!!f!G/4 z/4!<(! _e/4c/4G/4)!<)! | %44
!f![Q:1/4=95] .[_Adf] z .[F=Bd] z |[Q:1/4=90] .[_E_Ac] z z2 |!pp! .[_E=Ac] z z2 | %47
[Q:1/4=100]!p! z/ .[D=B]/"_cresc." z/ .[Fd]/ z/ .[Ec]/ z/ .[ce]/ | %48
 z/ .[=Bf]/ z/ .[f=b]/ z/ .[ec']/ z/ .[c'e']/ | %49
[Q:1/4=102] z/ .[=bf']/ z/ .[db]/ z/ .[ec']/ z/ .[ge']/ | %50
 z/ .[ff']/ z/ .[d=b]/ z/ .[ec']/ z/ .[ge']/ |!f![Q:1/4=104] z (3(d'/^c'/e'/) .d' (3(a/^g/=b/) | %52
 .a (3(f/e/=g/) .f (3(d/^c/e/) |[Q:1/4=96] !wedge!.d[Q:1/4=102] (d2 e/f/) | %54
!f! (g2-[Q:1/4=100] (3g/a/g/ (3f/e/d/) |[Q:1/4=100] c z!p! !wedge!.g!wedge!.g | %56
 !wedge!.e z !wedge!.[cc']!wedge!.[cc'] | !wedge!.[Aa] z[K:bass]!f! !wedge!.^F,,!wedge!.F,, | %58
{/^F,,} !trill(!TG,,4({F,,G,,)} | C,,2[K:treble]!p! (G/<!wedge!.g/) (G/<!wedge!.g/) | %60
 (E/<!wedge!.e/) z (c/<!wedge!.c'/) (c/<!wedge!.c'/) | %61
 (A/<!wedge!.a/) z[K:bass]!f! !wedge!.^F,,!wedge!.F,, |!ff!{/^F,,} !trill(!TG,,4({F,,G,,)} | %63
!f! C,,2[K:treble]"_cresc." !wedge!.^f!wedge!.f |!ff!{/^f} !trill(!Tg4({fg)} | %65
!ff![Q:1/4=96] [cc'] z [Gg] z |1[Q:1/4=90] [Cc]2 z :|2[Q:1/4=90] [Cc]2 z2 |: %68
!p![Q:1/4=96] .[Aa] z .[Ee] z |[Q:1/4=96] .[A,A] z z2 | %70
[Q:1/4=104] (3z/ (d/e/ (3f/e/d/) (3z/ (a/=b/ (3^c'/b/a/) | z/ (d'/^c'/d'/ e'/d'/f'/d'/) | %72
 (3z/ (^c'/d'/ (3e'/d'/c'/) (3z/ (c'/d'/ (3e'/d'/c'/) | %73
 z/"^"[Q:1/4=90] (!invertedturn!^c'/[Q:1/4=104]e'/d'/ c'/_b/a/g/) |!f! [dfad'] z [A^cea] z | %75
 [DFAd] z z2 | [A^cea] z [E^G=Be] z | [^CEA] z z2 | %78
[Q:1/4=100] (3z/!p! F/f/[Q:1/4=104] (3z/ ^G/^g/ (3z/ A/a/ (3z/ D/d/ | %79
 (3z/ D/d/ (3z/ ^C/^c/ (3z/ C/c/ (3z/ E/e/ | (3z/ E/e/ (3z/ D/d/ (3z/ D/d/ (3z/ F/f/ | %81
 (3z/ F/f/ (3z/ E/e/ (3z/ E/e/ (3z/ G/g/ |"_cresc." (3z/ G/g/ (3z/ F/f/ (3z/ G/g/ (3z/ ^F/^f/ | %83
!<(! (3z/ A/a/ (3z/ G/g/ (3z/ B/b/ (3z/ A/a/!<)! | (3z/!p! c/c'/ (3z/ B/b/ (3z/ d/d'/ (3z/ G/g/ | %85
 (3z/ G/g/ (3z/ E/e/ (3z/ ^F/^f/ (3z/ A/a/ | (3z/ A/a/ (3z/ ^F/^f/ (3z/ G/g/ (3z/ B/b/ | %87
 (3z/ B/b/ (3z/ ^G/^g/ (3z/ A/a/ (3z/ c/c'/ | %88
"_cresc." (3z/ c/c'/ (3z/ B/b/ (3z/ c/c'/ (3z/ =B/=b/ | %89
 (3z/ d/d'/ (3z/ c/c'/ (3z/ _e/_e'/ (3z/ d/d'/ | %90
!ff! (3z/ f/f'/ (3z/ _e/_e'/ (3z/ f/f'/ (3z/ =e/=e'/ | %91
[Q:1/4=100] (3z/ f/f'/ (3z/ c/c'/[Q:1/4=95] (3z/ f/f'/[Q:1/4=90] (3z/ _e/_e'/ | %92
[Q:1/4=100] (3z/!p! _e/_e'/[Q:1/4=104] (3z/ d/d'/ (3z/ f/f'/ (3z/ B/b/ | %93
 (3z/ B/b/ (3z/ ^G/^g/ (3z/ A/a/ (3z/ c/c'/ |"_cresc." (3z/ c/c'/ (3z/ A/a/ (3z/ B/b/ (3z/ d/d'/ | %95
[Q:1/4=100] (3z/ d/d'/ (3z/ =B/=b/[Q:1/4=95] (3z/ c/c'/[Q:1/4=90] (3z/!f! _e/[Q:1/4=60]_e'/ | %96
!p![Q:1/4=80] (3z/[Q:1/4=104] (d'/_e'/ (3f'/e'/d'/) (3z/ (d'/e'/ (3f'/e'/d'/) | %97
 (3z/ (d'/_e'/ (3f'/e'/d'/) (=e'/f'/d'/b/) |!p! (3z/ (a/b/ (3c'/b/a/) (3z/ (a/b/ (3c'/b/a/) | %99
 (3z/ (a/b/ (3c'/b/a/) (_e'/c'/a/_e/) |"_cresc." [B_dfb] z [FBdf] z | [_DFB_d] z z2 | %102
!f! [_EFA_e] z [EFAc] z | [C_EFA] z z2 |!p! (3z/ (B/c/ (3_d/c/B/) (3z/ (B/c/ (3d/c/B/) | %105
 (3z/ (B/c/ (3_d/c/B/) (b/f/_d'/f/) | (3z/ (=e/f/ (3g/f/e/) (3z/ (e/f/ (3g/f/e/) | %107
 (3z/ (e/f/ (3g/f/e/) (b/g/e/B/) |"_cresc." (3z/ (_A/B/ (3c/B/A/) (3z/ (A/B/ (3c/B/A/) | %109
 (3z/ (_A/B/ (3c/B/A/) (f/A/_a/A/) |!f! (3z/ (f/g/ (3_a/g/f/) (3z/ (f/g/ (3a/g/f/) | %111
!<(! (3z/ (f/g/ (3_a/g/f/) (a/f/f'/f/)!<)! |!ff! (3z/ (f/g/ (3_a/g/f/) (d'/f/d'/f/) | %113
 (3z/ (f/g/ (3_a/g/f/) (d'/f/d'/f/) | (3z/ (f/g/ (3=a/g/f/)"_decresc." (d'/f/d'/f/ | %115
[Q:1/4=100] d'/f/d'/f/ d'/f/d'/f/) |!p!!>(! z/[Q:1/4=95] (e/d'/e/ d'/e/d'/e/)!>)! | %117
!pp![Q:1/4=90] z/ (e/^c'/e/[Q:1/4=85] c'/e/c'/e/) | z2 !fermata!z || %119
[K:D]!p![Q:1/4=80] !wedge!.[DF] |[Q:1/4=104] .[DFA]2 z!p! (3(a/^g/b/) | %121
 a2 z!p![Q:1/4=80] !wedge!.[DF] |[Q:1/4=104] .[EG]2 z!p! (3(a/^g/b/) | a2 z[Q:1/4=90] (G | %124
[Q:1/4=100]!<(! F/>A/ d2 c | d f2!<)!!p!!>(! e- | e f2 g/a/)!>)![Q:1/4=95] |!p![Q:1/4=90] (ag) z2 | %128
[Q:1/4=90] (Tg[Q:1/4=104] b2 a/g/) |[Q:1/4=90]{fga} (g[Q:1/4=102]f-[Q:1/4=100] f/>e/g/>e/) | %130
[Q:1/4=95] (ed-[Q:1/4=90] d/>c/e/>c/) | d2 z2 | z2!pp! z[Q:1/4=80] !wedge!.[FA] | %133
[Q:1/4=100] .[G_B]2 z (3(_b/a/=c'/) | _b2 z[Q:1/4=80] !wedge!.[G_B] | %135
[Q:1/4=100] .[E_B]2 z!pp! (3(_b/a/=c'/) | _b2 z (3(b/a/=c'/) | %137
[Q:1/4=95] ._b(3(b/a/=c'/)[Q:1/4=90] .b(3(b/a/c'/) | _b2 z ||[K:F]!p! (B | %140
[Q:1/4=104]!<(! A/>c/ f2 e | f a2!<)!!p!!>(! g- | g a2 b/c'/)[Q:1/4=100] | %143
[Q:1/4=90] (c'!>)!!p!b) z2 | (Tb[Q:1/4=102] d'2 c'/b/) | %145
[Q:1/4=90]{abc'} (b[Q:1/4=102]a-[Q:1/4=100] a/>g/b/>g/) |[Q:1/4=95] (gf-[Q:1/4=90] f/>e/g/>e/) | %147
[Q:1/4=96] f2 z[Q:1/4=90] ([F,F] |[Q:1/4=96]!<(! [A,CFA]2 [CFAc]2 | [FAcf]3)[Q:1/4=92] [Acfa] | %150
[Q:1/4=92] [cfac']!<)!!>(! [fac'f']2[Q:1/4=90] [fac'f'] |[Q:1/4=92] (([fbc'f']2 [ebc'e']))!>)! z | %152
[Q:1/4=96]!p!!<(! ([E,G,B,E]2 [G,B,EG]2 | [B,EGB]3)[Q:1/4=92] ([Ee] | %154
 [Gg]!<)!!>(! [Bb]2[Q:1/4=90] [Aa]) |[Q:1/4=92] (([Gg]2 [Ff]))!>)! z | %156
!p![Q:1/4=96] (F/_A/C/E/ F/A/C/E/) | (F/_A/C/E/ F/A/[Q:1/4=90]C/E/ | %158
[Q:1/4=96] F/_A/C/E/ F/G/A/F/) | (G/B/_E/^F/[Q:1/4=94] G/B/E/F/ |[Q:1/4=96] G/B/_E/^F/ G/B/E/F/) | %161
 (G/B/_E/^F/ G/B/[Q:1/4=90]E/F/ |[Q:1/4=96] G/B/_E/^F/ G/B/E/F/) | %163
!p!!<(! (_A/c/_E/G/ =A/c/F/A/!<)! |!p!!>(! B/f/F/A/ =B/F/!>)!f/!p!B/) | %165
!f![Q:1/4=102] c2!p! z !wedge!.f' | x2 z !wedge!.=b | c'2 z !wedge!.f' | x2 z !wedge!.=b | %169
 c'2 z !wedge!.=b | c'2 z !wedge!.=b | c'2[Q:1/4=100] x2 | %172
[Q:1/4=95] =B/c/d/c/[Q:1/4=90] B/c/[Q:1/4=80]^c/[Q:1/4=70].d/ | %173
!p![Q:1/4=100]!>(! (d!p!.B)!>)!.G[Q:1/4=95].!invertedturn!A | %174
!p![Q:1/4=100]!>(! (d!p!.B)!>)!.G[Q:1/4=95].!invertedturn!A |[Q:1/4=92] .[DGB] z .[CEG] z | %176
 .[CFA]2 z!f![Q:1/4=100] z/4 (c'/4_a/4c/4 | %177
!ff! z/4 _d'/4b/4c/4 z/4!>(! b/4g/4c/4 z/4 g/4e/4!>)!!f!c/4 z/4!<(! _a/4f/4c/4)!<)! | %178
!ff! z/4 (_d'/4b/4c/4 z/4!>(! b/4g/4c/4 z/4 g/4e/4!>)!!f!c/4 z/4!<(! _a/4f/4c/4)!<)! | %179
!f![Q:1/4=95] .[_dgb] z .[Beg] z |[Q:1/4=90] .[_A_df] z z2 |!pp! .[_A,=DF] z z2 | %182
[Q:1/4=100]!p! z/ .[G,E]/"_cresc." z/ .[B,G]/ z/ .[=A,F]/ z/ .[FA]/ | %183
 z/ .[EB]/ z/ .[Be]/ z/ .[Af]/ z/ .[fa]/ | %184
 z/[Q:1/4=102] .[eb]/ z/ .[egc']/ z/ .[fac']/ z/ .[ac'f']/ | %185
 z/ .[gc'e']/ z/ .[egc']/ z/ .[fac']/ z/ .[ac'f']/ | %186
!f![Q:1/4=104] z (3(d'/^c'/e'/) .d' (3(b/a/=c'/) | .b (3(g/^f/a/) .g (3(d/^c/e/) | %188
[Q:1/4=96] !wedge!.d[Q:1/4=100] (G2 A/B/) |!f! c2-[Q:1/4=100] (3(c/d/c/ (3B/A/G/) | %190
 !wedge!.F!ff! (g2 a/=b/) | (c'2- c'/4d'/4c'/4=b/4 (3c'/d'/e'/) | %192
[Q:1/4=100] f' z!p! !wedge!.[cc']!wedge!.[cc'] | !wedge!.[Aa] z !wedge!.[ff']!wedge!.[ff'] | %194
 !wedge!.[dd'] z[K:bass]!f! !wedge!.=B,,!wedge!.B,, |{/=B,,} !trill(!TC,4({B,,C,)} | %196
 F,,2[K:treble]!p! (c/<!wedge!.c'/) (c/<!wedge!.c'/) | %197
 (A/<!wedge!.a/) z (f/<!wedge!.f'/) (f/<!wedge!.f'/) | %198
 (d/<!wedge!.d'/) z[K:bass]!f! !wedge!.=B,,!wedge!.B,, |!ff!{/=B,,} !trill(!TC,4({B,,C,)} | %200
!f! F,,2[K:treble] !wedge!.=b!wedge!.b |{/=b} !trill(!Tc'4({bc')} | %202
!f! [ff']2"_cresc." !wedge!.=B!wedge!.B |!ff!{/=B} !trill(!Tc4({Bc)} | %204
!ff![Q:1/4=96] [Ff] z [Cc] z |1 [F,F]2 z2 :|2 [F,F]2 !fermata!z |] %207
[K:Ab][M:3/4][K:bass][Q:1/4=160]"^Allegretto."!p![Q:3/4=56] (C,2 |[Q:3/4=62] F,2 A,2 =E,2 | %209
 F,2 A,2 C2 |[K:treble] D2 B,2 =E2 | F2 C2 G2 | A4 B2 | [Ac]4[Q:3/4=60]{e} [Bd]2 | %214
[Q:3/4=59] ([EAc]4[Q:3/4=58] [DGB]2) |[Q:3/4=60] [CA]2) z2 ::!p![Q:3/4=58] c2 | %217
[Q:3/4=62] (c2 dc) .d2 | d2 z2 d2 | (d2 ed) .e2 | e2 z2 e2 | (e2 fe) .f2 | %222
[Q:3/4=60] f4[Q:3/4=56] .f2 |[Q:3/4=48] Tf4[Q:3/4=54][Q:3/4=50][Q:3/4=42] !breath!.g2 | %224
 !breath!!fermata![Gc]4!p![Q:3/4=56] (c2 |[Q:3/4=62] f2 a2 =e2 | f2 a2 c'2 | d'2 b2 =e'2 | %228
 f'2 c'2[Q:3/4=60] a2 | b2 d'2[Q:3/4=58] g2 | a4)!p! [Aa]2 |[Q:3/4=62] (a4 g2) | (a4 g2) | %233
 ([Af]2 [Bg]2[Q:3/4=60] [G=e]2) | ([Af]2 c2[Q:3/4=58] A2) |[Q:3/4=62] (A4 G2) | (A4 G2) | %237
[Q:3/4=60] ([A,F]2 [B,G]2[Q:3/4=58] [G,=E]2 | [A,F]2) z2!p![Q:3/4=56] C2 | %239
[Q:3/4=60]!<(! (=E4[Q:3/4=59] F2) | ((.[C=EG]4[Q:3/4=58] .[CFA]2))!<)! | %241
!ff![Q:3/4=56] [=EGc]3[Q:3/4=58]!p! (BAG) | (BAGF)[Q:3/4=54]!<(! Tc2 | %243
[Q:3/4=58] ([=eg]4[Q:3/4=56] [fa]2 | [g_b]2)!<)!!mf! z2!p![Q:3/4=52] !wedge!.[=eg=e']2 | %245
 !wedge!.[faf']2[Q:3/4=62] z2 z2 | z2 z2 :|[K:Db][Q:3/4=56]!pp! [F,A,F]2 | %248
[Q:3/4=62] (.[F,A,F]4 .[F,A,F]2) | (.[F,A,F]4 .[F,A,F]2) | ([G,-B,-F]6 | %251
 [G,B,E]3)[Q:3/4=56] (3x/x/x/"^" (!turn!EF) |[Q:3/4=62] (.[A,EG]4 .[A,EG]2) | %253
 (.[A,EG]4[Q:3/4=58] .[A,EG]2) | ([A,-EG]6 | [A,DF]2) z2[Q:3/4=56] (F=G) | %256
[Q:3/4=58]!<(! (.[A,FA]4 .[A,FA]2) |[Q:3/4=56] (.[A,EA]4[Q:3/4=54] .[A,EA]2)!<)! | %258
[Q:3/4=56]!>(! [D-E-Ad-]6 |[Q:3/4=58] (([DE=Gd]4!>)![Q:3/4=56]!p! [CEAc]2)) | %260
[Q:3/4=62] (c2 B2) A2 |[Q:3/4=58] (A4[Q:3/4=56] =G2) |[Q:3/4=58]!>(! (([DB]6!>)! | %263
!pp! [CA]2)) z2!p![Q:3/4=56] [F,A,F]2 |[Q:3/4=62] [F,A,F]4 [F,A,F]2 | [F,A,F]4 [F,A,F]2 | %266
 ([G,B,-F]6[Q:3/4=60] |[Q:3/4=62] [B,E]2) z2[Q:3/4=58] (EF) |[Q:3/4=62] [=A,CEG]4 [A,CEG]2 | %269
 [=A,CEG]4 [A,CEG]2 | (([=A,CEG]6[Q:3/4=60] |[Q:3/4=62] [B,DF]2)) z2[Q:3/4=60] (=GA) | %272
[Q:3/4=62] [D=GB]4 [DGB]2 | [D=GB]4 [DGB]2 | ([C-=GB]6[Q:3/4=60] |[Q:3/4=62] [CFA]2) z2 [A,A]2 | %276
[Q:3/4=60] [A,B,F]2 z2 [A,B,F]2 | [=G,B,E]2 z2[Q:3/4=58] [G,B,E]2 | A,2 z2 z2 | %279
 z2 z2[Q:3/4=56] z2 |[Q:3/4=62] z6 | z6 | z2 z2[Q:3/4=56] f'2- |[Q:3/4=62] (f'e'=d'_c'ba) | %284
 g2 z2 z2 | z6 | z2 z2[Q:3/4=56] e'2- |[Q:3/4=62] (e'd'c'bag) | [Ff]4 [FAf]2 | [FAf]4 [FAf]2 | %290
 ([G-B-f]6[Q:3/4=60] |[Q:3/4=62] [GBe]2) z2[Q:3/4=60] ([ce][df]) | %292
!p![Q:3/4=62]"_cresc." [ceg]4[Q:3/4=61] [ceg]2 | [ceg]4[Q:3/4=60] [ceg]2 |[Q:3/4=62] (([ceg]6 | %295
 [df]2)) z2 z2 |!pp! (.[DB]4[Q:3/4=61] .[DB]2) | (.[DB]4[Q:3/4=60] .[DB]2) | ([D-B]6 | %299
[Q:3/4=62] [DA]2) z2 z2 |!pp! [CA]4[Q:3/4=61] [CA]2 | [CA]4[Q:3/4=60] [CA]2 |[Q:3/4=62] D2 z2 z2 | %303
 z2 z2[Q:3/4=60] z2 |[Q:3/4=62] z6[Q:3/4=61] | z6[Q:3/4=60] | z2 z2[Q:3/4=56] f'2- | %307
[Q:3/4=62] (f'!p!e'=d'_c'ba) | g2 z2[Q:3/4=61] z2 | z6[Q:3/4=60] | z2 z2[Q:3/4=56] e'2- | %311
[Q:3/4=62] (e'!p!d'c'bag) | [Ff]4 [FAf]2 | [FAf]4[Q:3/4=61] [FAf]2 | ([G-B-f]6[Q:3/4=60] | %315
[Q:3/4=62] [GBe]2) z2[Q:3/4=60] ([ce][df]) |!p!"_cresc." [ceg]4[Q:3/4=61] [ceg]2 | %317
 [ceg]4[Q:3/4=60] [ceg]2 | (([ceg]6 |[Q:3/4=62] [df]2)) z2 z2 |!pp! (.[DB]4[Q:3/4=61] .[DB]2) | %321
 (.[DB]4[Q:3/4=60] .[DB]2) | ([D-B]6 | [D__B]6) |!pp! [CA]4[Q:3/4=59] [CA]2 | %325
 [CA]4[Q:3/4=58] [CA]2 | D2 z2 z2 | z6 |!pp! (.D4 .D2) | (.D4 .D2) | C6- | C6 | %332
 [=G,B,=E]4[Q:3/4=57] [G,B,E]2 | [=G,B,=E]4[Q:3/4=56] [G,B,E]2 || %334
[K:Ab]!p![Q:3/4=62] ([F,F]2 A,2 =E,2 | F,2 A,2 C2 | D2 B,2 =E2 | F2 C2 G2 | A4[Q:3/4=61] B2 | %339
 [Ac]4[Q:3/4=60]{e} [Bd]2 |[Q:3/4=59] [EAc]4[Q:3/4=58] [DGB]2 |[Q:3/4=56] [CA]2) z2 z[K:bass] C,- | %342
[Q:3/4=62]"_cresc." (C, F,2 A,2 =E,- | E, F,2 A,2 C- | C D2 B,2[K:treble] =E- | E F2 C2 G- | %346
 G A2 F2) B-[Q:3/4=61] | c3 (c!mp![Q:3/4=60]!>(! ed |[Q:3/4=59] c3 d[Q:3/4=58]Bc!>)! | %349
!p![Q:3/4=56] A2) z2!p![Q:3/4=58] c2 |[Q:3/4=62] (c2 =Bc) .d2 | d2 z2 d2 | (d2 cd) .e2 | e2 z2 e2 | %354
 (e2 =de)[Q:3/4=60] .f2 | f4[Q:3/4=54] .f2 |[Q:3/4=48] Tf4[Q:3/4=54][Q:3/4=50][Q:3/4=43] .g2 | %357
 !breath!!fermata![Gc]4[Q:3/4=56]!pp! (c2 |[Q:3/4=62] f2 a2 =e2- | e f2 a2 c'- | c' d'2 b2 =e'- | %361
 e' f'2 c'2 a- | a b2 d'2 g-[Q:3/4=61] | g a2) a2[Q:3/4=50] a[Q:3/4=60][Q:3/4=58] | %364
[Q:3/4=61] (a4 g2) | (a4 g2) | (f2 g2[Q:3/4=60] =e2) | (fedc[Q:3/4=58]BA) |[Q:3/4=60] (A4 G2) | %369
 (A4 G2) | (F2 G2 =E2) | [A,F]2 z2!p![Q:3/4=58]"_cresc." C2 | (=E4[Q:3/4=56] F2) | %373
 ([=EG]4[Q:3/4=54] [FA]2) |[Q:3/4=56] [=EGc]3 (BAG) | (BAGF)[Q:3/4=54] Tc2 | %376
 ([=eg]4[Q:3/4=52] [fa]2 | [g_b]2) z2!f![Q:3/4=50] !wedge!.[g=e']2 | !wedge!.[af']2 z2 z2 | %379
 !fermata!z6 |][K:F][M:2/4][Q:1/4=155]"^Presto" z | z4 | z4 | z4 | z2 z!mp! .C | .F.F.F.C | %386
 .A.A.A.F | .c.c (c/d/c/B/) | x2 z .G |!mp! .c.c.c.G | .e.e.e.c | .g.g (g/a/g/f/) | %392
 .e.e"_cresc." (e/d/e/c/) | .a.a (a/b/a/g/) | .f.f!mf! (f/e/f/d/) | %395
[Q:1/4=145] .f'[Q:1/4=155].f' (e'/^d'/e'/c'/) |[Q:1/4=145] .f'[Q:1/4=155].f' (e'/^d'/e'/c'/) | %397
 (=d'/c'/=b/a/ g/f/e/d/) | (c/=B/c/d/ e/f/g/e/) |[Q:1/4=145] (f/d/[Q:1/4=155]f/d/ e/^d/e/c/) | %400
[Q:1/4=145] (f/=d/[Q:1/4=155]f/d/ e/^d/e/c/) |!f! (a/^g/a/g/ a/=g/f/e/ | d/c/=B/A/ G/F/E/D/) | %403
[Q:1/4=145] .C[Q:1/4=155].[E,G,].[E,G,].[E,C] |[Q:1/4=145] .C[Q:1/4=155].[E,G,].[E,G,].[E,C] | %405
[Q:1/4=145] .[F,G,][Q:1/4=155].[F,D].[F,D].[F,D] | .[F,D].[F,D] ([F,D]/E/[F,D]/E/) | %407
[Q:1/4=145] .C[Q:1/4=155].[E,G,].[E,G,].[E,C] |[Q:1/4=145] .C[Q:1/4=155].[E,G,].[E,G,].[E,C] | %409
[Q:1/4=145] .[F,G,][Q:1/4=155].[F,D].[F,D].[F,D] | .[F,D].[F,D] ([F,D]/E/[F,D]/E/) | %411
[Q:1/4=150] .[E,C].G,[Q:1/4=145].[E,C].G, | [E,C]2 z ::!f! ._E, | ._A,.A,{/B,} (A,/G,/A,/_B,/) | %415
[Q:1/4=145] .C[Q:1/4=155].C{/_D} (C/=B,/C/_D/) |[Q:1/4=145] ._E[Q:1/4=155].E{/F} (E/=D/E/F/) | %417
[Q:1/4=145] .G[Q:1/4=155].G (G/_E/F/G/) |[Q:1/4=145] ._A[Q:1/4=155].A.A._E | .c.c.c._A | %420
 ._e.e (e/f/e/d/) | ._e.e (e/f/e/_d/) | .[c_a] .a.a._e |"_cresc." .c'.c'.c'._a | %424
 ._e'.e' (e'/f'/e'/_d'/) | .c'.c' (c'/_d'/c'/b/) |!f! .a.a .a.b | c'2 z2 | %428
 ._d'.d' (d'/_e'/d'/c'/) | .b.b (b/c'/b/_a/) | .[=eg].[eg] .[eg].[f_a] | [gb]4 | %432
[Q:1/4=145] ._a[Q:1/4=155].a (a/g/a/f/) |[Q:1/4=145] =b4[Q:1/4=155] | %434
[Q:1/4=145] .c'[Q:1/4=155].c' (c'/=b/c'/_e'/) |[Q:1/4=145] ^f4[Q:1/4=155] | %436
[Q:1/4=145] g2[Q:1/4=155] z2 |[Q:1/4=145] .^f[Q:1/4=155].f (f/e/f/d/) | %438
[Q:1/4=145] .g[Q:1/4=155].g (g/^f/g/b/) |[Q:1/4=145] ^c4[Q:1/4=155] |[Q:1/4=145] d2[Q:1/4=155] z2 | %441
[Q:1/4=145] .^c[Q:1/4=155].c (c/=B/c/A/) |[Q:1/4=145] .d[Q:1/4=155].d (d/^c/d/f/) | %443
[Q:1/4=145] ^G4[Q:1/4=155] |[Q:1/4=145] A4[Q:1/4=155] |[Q:1/4=145] ^G4[Q:1/4=155] | %446
[Q:1/4=145] A4[Q:1/4=155] |[Q:1/4=145] ^G4[Q:1/4=155] |!f![Q:1/4=140] A[Q:1/4=155]!p! x x2 | %449
[Q:1/4=150] (a/^g/a/g/[Q:1/4=145] a/g/a/g/) |!p! .[^fa]!p![Q:1/4=155].[fa].[fa].[fa] | %451
[Q:1/4=145] .[^fa][Q:1/4=155].[fa].[fa].[fa] |[Q:1/4=145] .a[Q:1/4=155].=b.^c'.d' | %453
[Q:1/4=145] .e'[Q:1/4=155].^c'.d'.e' |[Q:1/4=145] .[^fa][Q:1/4=155].[fa].[fa].[fa] | %455
[Q:1/4=145] .[^fa][Q:1/4=155].[fa].[fa].[fa] |[Q:1/4=145] .a[Q:1/4=155].=b.^c'.d' | %457
[Q:1/4=145] .e'[Q:1/4=155].^c'.d'.e' | .a.a.=b.=c' | .d'.=b.c'.d' | .g.g.a._b | .c'.a.b.c' | %462
 .[df].[df].[eg].[fa] | .[gb].[gb].[gb].[gb] |"_cresc." .[gb].[gb].[gb].[gb] | %465
 .[gb].[ab].[gb].[fb] |!f! ([eb]/c'/d'/c'/ b/a/g/f/) |!f! (e/f/g/f/ e/d/c/B/) | Ac'/b/ a/g/f/e/ | %469
 f/e/d/c/ B/A/G/F/ | E/F/G/F/ E/C/D/E/ | F/C/F/C/ F/C/G/C/ |!ff! .A.F.F.C | .A.A.A.F | %474
 .c.c (c/d/c/B/) | A/c/G/^c/ ^F/d/A/=c/ | Bd'/c'/ b/a/g/^f/ | g/=f/_e/d/ c/B/A/G/ | %478
 ^F/G/A/G/ F/D/E/F/ | G/D/G/D/ G/D/A/D/ | .B.G.G.D | .B.B.B.G | .d.d (d/_e/d/c/) | %483
 B/d/=e/B/ f/A/_e/c/ | df'/_e'/ d'/c'/b/a/ | b/a/g/f/ _e/d/c/B/ | A/B/c/B/ A/F/G/A/ | %487
[Q:1/4=150] B/F/B/F/[Q:1/4=145] c/F/c/F/ |[Q:1/4=140] _d[Q:1/4=150]!p!B/b/ B/b/F/f/ | %489
 _d/_d'/d/d'/ d/d'/B/b/ |"_cresc." f/f'/f/f'/ f/f'/_e/_e'/ | _d/_d'/d/d'/ d/d'/B/b/ | %492
 f/f'/f/f'/ f/f'/_e/_e'/ | _d/_d'/d/d'/ d/d'/c/c'/ | B/b/B/b/ B/b/_A/_a/ | _G/_g/G/g/ G/g/F/f/ | %496
!f![Q:1/4=152] =E/=e/E/e/ E/e/=G/=g/ | F/f/_A/_a/ G/g/B/b/ | _A/_a/c/c'/ =A/=a/c/c'/ | %499
 B/b/_d/_d'/ c/c'/_e/_e'/ |!ff![Q:1/4=155] _d/_d'/d/d'/ d/d'/c/c'/ | %501
 =B/=b/B/b/ B/b/[Q:1/4=145]f/f'/ |[Q:1/4=155] e/e'/e/e'/ e/e'/[Q:1/4=145]_B/_b/ | %503
[Q:1/4=155] A/a/A/a/ A/a/[Q:1/4=145]_e/_e'/ |!f! d[Q:1/4=155](d'/^c'/ d'/=c'/_b/a/ | %505
 g/f/e/d/ c/_B/A/G/) |[Q:1/4=145] .F[Q:1/4=155].[A,C].[A,C].[A,F] | %507
[Q:1/4=145] .F[Q:1/4=155].[A,C].[A,C].[A,F] |[Q:1/4=145] .[B,C][Q:1/4=155].[B,G].[B,G].[B,G] | %509
 .[B,G].[B,G] ([B,G]/A/[B,G]/A/) |[Q:1/4=145] .F[Q:1/4=155].[A,C].[A,C].[A,F] | %511
[Q:1/4=145] .F[Q:1/4=155].[A,C].[A,C].[A,F] |[Q:1/4=145] .[B,C][Q:1/4=155].[B,G].[B,G].[B,G] | %513
[Q:1/4=150] .[B,G].[B,G][Q:1/4=145] ([B,G]/A/[B,G]/A/) | %514
[Q:1/4=140] .[A,F][Q:1/4=155] .[ac'].[ac'].[ac'] |[Q:1/4=145] .[ac'][Q:1/4=155].[ac'].[ac'].[ac'] | %516
[Q:1/4=145] .[bc'][Q:1/4=155].[bc'].[bc'].[bc'] |[Q:1/4=145] .[bc'][Q:1/4=155].[bc'].[bc'].[bc'] | %518
[Q:1/4=145] .[ac'][Q:1/4=155].[ac'].[ac'].[ac'] |[Q:1/4=145] .[ac'][Q:1/4=155].[ac'].[ac'].[ac'] | %520
[Q:1/4=145] .[bc'][Q:1/4=155].[bc'].[bc'].[bc'] |[Q:1/4=145] .[bc'][Q:1/4=155].[bc'].[bc'].[bc'] | %522
[Q:1/4=145] .[ac'][Q:1/4=155] .[ac'].[ac'].[ac'] | .[egc'].[egc'].[egd'].[ege'] | %524
[Q:1/4=145] .[faf'][Q:1/4=155]"_cresc." .[cac'].[cac'].[cac'] | .[cbc'].[cbc'].[dbc'].[ebc'] | %526
[Q:1/4=152] .[ff'].[ee'].[dd'].[cc'] | .[Bb].[Aa].[Gg].[cc'] | %528
!ff![Q:1/4=150] .[Ff].[Ee].[Dd].[Cc] | .[B,B].[A,A][Q:1/4=145].[G,G].[Cc] | [F,F]2 z2 | %531
 !fermata!z2 z :| %532
V:2
 !wedge!.[F,,C,F,] |!ped! .[F,,C,F,]2!ped-up! z2 | z2 z !wedge!.[F,,C,F,] | %3
!ped! .[E,,C,E,]2!ped-up! z2 | z4 |[K:treble]!p!!ped!!<(! ([F,A,C]2!ped-up!!ped! [G,B,C]2!ped-up! | %6
!ped! [A,CF]2!<)!!ped-up!!p!!ped!!>(! [B,DFG]2!ped-up! | %7
!ped! [CFA]2!ped-up!!ped! [_EFAc]2!>)!!ped-up! |!p!!ped! [DFB]2)!ped-up! z2 | %9
!ped! ([DGB]2!ped-up!!ped! [EGc]2!ped-up! |!ped! [FAc]2!ped-up!!ped! [B,DG]2)!ped-up! | %11
!ped! [CFA]2!ped-up!!ped! [CGB]2!ped-up! |!ped! [FA]2!ped-up! z[K:bass] !wedge!.[F,,C,F,] | %13
!ped! .[F,,C,F,]2!ped-up! z2 | z2 z !wedge!.[F,,C,^D,] |!ped! .[F,,C,^D,]2!ped-up! z2 | %16
 z2 z!ped! (3(A,/=B,/C/!ped-up! | .^G,)!ped!(3(A,/=B,/C/!ped-up! .G,)!ped!(3(A,/B,/C/!ped-up! | %18
 .^G,2) z!p! (=G,,/=B,,/ |!ped!!<(! C,/E,/G,,/=B,,/ C,/E,/G,,/B,,/!ped-up! | %20
!ped! C,/E,/G,,/=B,,/ C,/E,/G,,/B,,/!ped-up! | %21
!ped! C,/E,/!<)!!mp!G,,/!>(!=B,,/ C,/E,/G,,/C,/!ped-up! | %22
!ped! D,/F,/G,,/!>)!^C,/ D,/F,/G,,/C,/!ped-up! | %23
!mp!!ped!!<(! D,/F,/G,,/^C,/ D,/F,/G,,/C,/!ped-up! |!ped! D,/F,/G,,/^C,/ D,/F,/G,,/C,/!ped-up! | %25
!ped! D,/!<)!F,/!mp!G,,/!>(!^C,/ D,/F,/G,,/D,/!ped-up! | %26
!ped! E,/G,/C,/!>)!^D,/!mp! E,/G,/!ped-up!E,/=D,/) | %27
!f!!ped! (C,/C/E/D/!ped-up!!ped! C/E/C/=B,/!ped-up! | %28
!ped! A,/C/A,/G,/!ped-up!!ped! ^F,/A,/F,/E,/!ped-up! | %29
!ped! D,/E,/^F,/G,/!ped-up!!ped! A,/D,/E,/F,/)!ped-up! | %30
!mp!!ped! (3(G,/=B,/D/!ped-up!(3B,/D/B,/)!p!!ped! (3(A,/C/D/!ped-up!(3C/D/C/) | %31
!ped! (3(G,/=B,/D/!ped-up!(3B,/D/B,/)!ped! (3(^F,/A,/D/!ped-up!(3A,/D/A,/) | %32
!ped! (3(G,/=B,/D/!ped-up!(3B,/D/B,/)!ped! (3(A,/C/D/!ped-up!(3C/D/C/) | %33
!ped! (3(G,/=B,/D/!ped-up!(3B,/D/B,/)!ped! (3(^F,/A,/D/!ped-up!(3A,/D/A,/) | %34
!ped! (3(G,/=B,/D/!ped-up!(3B,/D/B,/)!ped! (3(^F,/A,/D/!ped-up!(3A,/D/A,/) | %35
!ped! (3(G,/=B,/D/!ped-up!(3B,/D/B,/)!ped! (3(^F,/A,/D/!ped-up!(3A,/D/A,/) | [G,=B,D] z z2 | z4 | %38
[K:treble]!ped! G2!ped-up! .G.G |!ped! G2!ped-up! .G.G | %40
[K:bass]!ped! .[F,F]!ped-up! z!ped! .[G,=B,D]!ped-up! z | %41
!ped! .[C,E,G,C]2!ped-up! z[K:treble] ([_EG] |!ped! [F_A]!ped-up!!f!.[DF]).[=B,D].[C_E] | %43
!ped! ([F_A]!ped-up!!f!.[DF]).[=B,D].[C_E] | %44
[K:bass]!ped! .[F,_A,D]!ped-up! z!ped! .[G,=B,D]!ped-up! z |!ped! .[_A,C]!ped-up! z z2 | %46
!ped! .[^F,=A,C]!ped-up! z z2 | .[=F,G,].[=B,,G,].[C,G,].[G,,G,] | %48
 .[D,G,].[=B,,G,].[C,G,].[G,,G,] | .[D,G,].[F,G,].[E,G,].[C,G,] | .[D,G,].[F,G,].[E,G,].[C,G,] | %51
!ped! [F,,A,,D,]!ped-up! z!ped! [F,A,D]!ped-up! z | z4 | z (D2 E/F/) | %54
 G2!mf!!ped! [G,=B,DF]2!ped-up! | %55
[K:treble]!p!!ped! (3(C/E/G/)!ped-up! (3(C/E/G/)!p! (3(C/E/G/) (3(C/E/G/) | %56
 (3C/E/G/ (3C/E/G/ (3C/E/G/ (3C/E/G/ | %57
[K:bass] (3[F,A,]/C/D/ (3[F,A,]/C/D/!mp! (3[^F,A,]/C/D/ (3[F,A,]/C/D/ | %58
!ped! (3G,/C/E/ (3G,/C/E/!ped-up!!ped! (3G,/=B,/D/ (3G,/B,/D/!ped-up! | %59
!ped! C,/4E,/4G,/4C/4!ped-up! C,/4E,/4G,/4C/4!p! C,/4E,/4G,/4C/4 C,/4E,/4G,/4C/4 | %60
 C,/4E,/4G,/4C/4 C,/4E,/4G,/4C/4 (3E,/G,/C/ (3E,/G,/C/ | %61
 F,/4A,/4C/4D/4 F,/4A,/4C/4D/4!mf! ^F,/4A,/4C/4D/4 F,/4A,/4C/4D/4 | %62
!f!!ped! (3G,/C/E/ (3G,/C/E/!ped-up!!ped! (3G,/=B,/D/ (3G,/B,/D/!ped-up! | %63
!mf!!ped! C,/4E,/4G,/4C/4 C,/4E,/4G,/4C/4!ped-up!"_cresc." (3C,/_E,/G,/ (3C,/E,/G,/ | %64
!f!!ped! G,,/4C,/4D,/4G,/4 G,,/4C,/4D,/4G,/4!ped-up!!ped! G,,/4=B,,/4D,/4G,/4 G,,/4B,,/4D,/4G,/4!ped-up! | %65
!ped! C,!ped-up! z!ped! [G,,G,]!ped-up! z |1!ped! [C,,C,]2!ped-up! z :|2 [C,,C,]2 z2 |: %68
!ped! .[A,,A,]!ped-up! z!ped! .[E,,E,]!ped-up! z |!ped! .[A,,,A,,]!ped-up! z z2 | .D z .A, z | %71
 .D, z z2 | .A, z .E, z | .A,, z z2 | %74
!ped! (3z/ (D,,/E,,/!ped-up! (3F,,/E,,/D,,/)!ped! (3z/ (A,,/B,,/!ped-up! (3^C,/B,,/A,,/) | %75
!ped! (3z/ (D,/E,/!ped-up! (3F,/E,/D,/) (A,/F,/E,/D,/) | %76
!ped! (3z/ (A,,/=B,,/!ped-up! (3^C,/B,,/A,,/)!ped! (3z/ (E,/^F,/!ped-up! (3^G,/F,/E,/) | %77
!ped! z/ (^G,/!ped-up!A,/_B,/ A,/=G,/=F,/E,/) | %78
 !wedge!.D,,!p! !wedge![D,F,A,]!wedge![D,F,A,]!wedge![D,F,A,] | %79
 !wedge!.E,, !wedge![E,G,A,]!wedge![E,G,A,]!wedge![E,G,A,] | %80
 !wedge!.F,, !wedge![F,A,]!wedge![F,A,]!wedge![F,A,] | %81
 !wedge!.^C,, !wedge![^C,A,]!wedge![C,A,]!wedge![C,A,] | %82
"_cresc." !wedge!.D,!wedge!.D !wedge!.=C,!wedge!.=C | %83
 !wedge!.B,,!wedge!.B, !wedge!.^F,,!wedge!.^F, | %84
 !wedge!.G,, !wedge![G,B,D]!wedge![G,B,D]!wedge![G,B,D] | %85
 !wedge!.A,, !wedge![A,CD]!wedge![A,CD]!wedge![A,CD] | %86
 !wedge!.B,, !wedge![B,D]!wedge![B,D]!wedge![B,D] | !wedge!.^F, !wedge![CD]!wedge![CD]!wedge![CD] | %88
"_cresc." !wedge!.G,!wedge!.G !wedge!.=F,!wedge!.=F | %89
 !wedge!._E,!wedge!._E !wedge!.=B,,!wedge!.=B, |!f! !wedge!.C,!wedge!.C !wedge!._B,,!wedge!._B, | %91
 !wedge!.A,,!wedge!.A, !wedge!.F,,!wedge!.F, | %92
 !wedge!.B,, !wedge![B,DF]!wedge![B,DF]!wedge![B,DF] | %93
 !wedge!.C, !wedge![C_EF]!wedge![CEF]!wedge![CEF] | %94
"_cresc." !wedge!.D, !wedge![DF]!wedge![DF]!wedge![DF] | %95
 !wedge!.A, !wedge![C_EF]!wedge![CEF]!mf!!wedge![CEF] |[K:treble]!ped! B!ped-up! z F z | B, z z2 | %98
[K:bass] F z C z | F, z z2 |[K:bass] (3z/ (B,,/C,/ (3_D,/C,/B,,/) (3z/ (B,,/C,/ (3D,/C,/B,,/) | %101
 (3z/ (B,,/C,/ (3_D,/C,/B,,/) (F,/D,/C,/B,,/) | %102
 (3z/ (F,,/G,,/ (3A,,/G,,/F,,/) (3z/ (A,,/B,,/ (3C,/B,,/A,,/) | %103
 (3z/ (C,/_D,/ (3_E,/D,/C,/) (F,/E,/D,/C,/) | B, z F, z | B,, z z2 |[K:bass] C, z G,, z | %107
 C,, z z2 | F, z C, z | F,, z z2 |!ped! _D,!ped-up! z!ped! _A,,!ped-up! z | %111
!ped! _D,,!ped-up! z!ped! C,,!ped-up! z |!ped! =B,,, z!ped-up! z2 |!ped! _B,,,2!ped-up! z2 | %114
!ped! =A,,,2!ped-up! z2 | z4 |!ped! [=A,,,A,,]2!ped-up! z2 |!ped! [=A,,,A,,]2!ped-up! z2 | %118
 z2 !fermata!z ||[K:D] !wedge!.[D,A,] |!ped! .[D,A,]2!ped-up! z2 | z2 z !wedge!.[D,A,] | %122
!ped! .[C,A,]2!ped-up! z2 | z4 |[K:bass]!p!!ped!!<(! ([D,F,A,]2!ped-up!!ped! [E,G,A,C]2!ped-up! | %125
!ped! [F,A,D]2!<)!!ped-up!!p!!ped!!>(! [G,B,D]2!ped-up! | %126
[K:treble]!ped! [A,=CDF]2!ped-up!!ped! [CDFA]2!>)!!ped-up! |!p!!ped! [B,DG]2)!ped-up! z2 | %128
!ped! ([B,EG]2!ped-up!!ped! [^CEA]2!ped-up! |!ped! [DFA]2)!ped-up![K:bass]!ped! ([G,B,E]2!ped-up! | %130
!ped! [A,DF]2)!ped-up!!ped! [A,EG]2!ped-up! |!ped! [DF]2!ped-up! z2 | z2 z !wedge!.[D,D] | %133
!ped! .[G,D]2!ped-up! z2 | z2 z !wedge!.[G,D] |!ped! .[=C,=C]2!ped-up! z2 | z4 | z4 | z2 z || %139
[K:F] z |[K:treble]!p!!ped!!<(! ([F,A,C]2!ped-up!!ped! [G,B,C]2!ped-up! | %141
!ped! [A,CF]2!<)!!ped-up!!p!!ped!!>(! [B,DFG]2!ped-up! | %142
!ped! [CFA]2!ped-up!!ped! [_EFAc]2!>)!!ped-up! |!p!!ped! [DFB]2)!ped-up! z2 | %144
!ped! ([DGB]2!ped-up!!ped! [=EGc]2!ped-up! |!ped! [FAc]2!ped-up!!ped! [B,DG]2!ped-up! | %146
!ped! [CFA]2)!ped-up!!ped! [CGB] z!ped-up! | %147
[K:bass]!ped! (F,,/A,,/C,,/E,,/ F,,/A,,/C,,/E,,/!ped-up! | %148
!ped!!<(! F,,/A,,/C,,/E,,/ F,,/A,,/C,,/E,,/!ped-up! | %149
!ped! F,,/A,,/C,,/E,,/ F,,/A,,/C,,/E,,/!ped-up! | %150
!ped! F,,/A,,/!<)!!>(!C,,/E,,/ F,,/A,,/C,,/F,,/!ped-up! | %151
!ped! G,,/B,,/C,,/^F,,/ G,,/B,,/!>)!C,,/F,,/!ped-up! | %152
!p!!ped!!<(! G,,/B,,/C,,/^F,,/ G,,/B,,/C,,/F,,/!ped-up! | %153
!ped! G,,/B,,/C,,/^F,,/ G,,/B,,/C,,/F,,/!ped-up! | %154
!ped! G,,/B,,/!<)!!>(!C,,/^F,,/ G,,/B,,/C,,/G,,/!ped-up! | %155
!ped! A,,/C,/F,,/^G,,/ A,,/!>)!C,/F,,/_A,,/)!ped-up! |!p!!<(! z2 F,2-!<)! | %157
!mp!!ped!!>(! [F,_A,]3!ped-up! x!>)! | [F,_A,][F,A,][F,A,][F,A,] |!ped! [_E,G,B,]2!ped-up! z2 | %160
!p!!<(! z2 G,2- |!mp!!ped!!>(! [G,B,]3!<)!!ped-up!!p! x!>)! |!p! [B,_D][B,D][B,D][B,D] | %163
!<(! ([_A,C]2 _E2!<)! |!mp!!>(! =D2!p! _D2)!>)! | %165
 (3(C,/E,/G,/(3E,/G,/E,/)!p!!ped! (3(=B,,/D,/G,/(3D,/G,/D,/)!ped-up! | %166
!ped! (3C,/E,/G,/(3E,/G,/E,/!ped-up!!ped! (3D,/F,/G,/(3F,/G,/F,/!ped-up! | %167
!ped! (3C,/E,/G,/(3E,/G,/E,/!ped-up!!ped! (3=B,,/D,/G,/(3D,/G,/D,/!ped-up! | %168
!ped! (3C,/E,/G,/(3E,/G,/E,/!ped-up!!ped! (3D,/F,/G,/(3F,/G,/F,/!ped-up! | %169
!ped! (3C,/E,/G,/(3E,/G,/E,/!ped-up!!ped! (3D,/F,/G,/(3F,/G,/F,/!ped-up! | %170
!ped! (3C,/E,/G,/(3E,/G,/E,/!ped-up!!ped! (3D,/F,/G,/(3F,/G,/F,/!ped-up! | %171
!ped! [C,E,G,]2!ped-up! z2 | z4 |!ped! C2!ped-up! CC |!ped! C2!ped-up! CC | %175
!ped! .[B,,B,]!ped-up! z!ped! .[C,E,G,]!ped-up! z |!ped! .[F,,C,F,]2!ped-up! z[K:treble] ([_Ac] | %177
!ped! [B_d]!ped-up!!f!.[GB]).[EG].[F_A] |!ped! ([B_d]!ped-up!!f!.[GB]).[EG].[F_A] | %179
!ped! .[B,_DG]!ped-up! z!ped! .[CEG]!ped-up! z |!ped! .[_DF]!ped-up! z z2 | %181
[K:bass]!ped! .[=B,,,=B,,]!ped-up! z z2 | .[_B,,C,].[E,,C,].[F,,C,].[C,,C,] | %183
 .[G,,C,].[C,,C,].[F,,C,].[C,,C,] | .[G,,C,].[B,,C,].[A,,C,].[F,,C,] | %185
 .[G,,C,].[B,,C,].[A,,C,].[F,,C,] |!ped! [B,,D,G,]!ped-up! z!ped! [B,DG]!ped-up! z | z4 | %188
 z (G,2 A,/B,/) | C2!mf!!ped! [C,E,G,B,]2!ped-up! | [F,A,][K:treble]!ped! (G2 A/=B/)!ped-up! | %191
!ped! [CFAc]2!ped-up!!mf!!ped! [CG_B]2!ped-up! | %192
[K:bass]!p!!ped! (3F,/A,/C/!ped-up! (3F,/A,/C/!p! (3F,/A,/C/ (3F,/A,/C/ | %193
 (3F,/A,/C/ (3F,/A,/C/ (3A,/C/F/ (3A,/C/F/ | %194
 (3[B,D]/F/G/ (3[B,D]/F/G/!mp! (3[=B,D]/F/G/ (3[B,D]/F/G/ | %195
[K:treble]!ped! (3C/F/A/ (3C/F/A/!ped-up!!ped! (3C/E/G/ (3C/E/G/!ped-up! | %196
[K:bass]!ped! F,/4A,/4C/4F/4!ped-up! F,/4A,/4C/4F/4!p! F,/4A,/4C/4F/4 F,/4A,/4C/4F/4 | %197
 F,/4A,/4C/4F/4 F,/4A,/4C/4F/4 (3A,/C/F/ (3A,/C/F/ | %198
 B,/4D/4F/4G/4 B,/4D/4F/4G/4!mf! =B,/4D/4F/4G/4 B,/4D/4F/4G/4 | %199
[K:treble]!f!!ped! (3C/F/A/ (3C/F/A/!ped-up!!ped! (3C/E/G/ (3C/E/G/!ped-up! | %200
[K:bass]!mf!!ped! F,/4A,/4C/4F/4 F,/4A,/4C/4F/4!ped-up! (3F,/_A,/C/ (3F,/A,/C/ | %201
!f!!ped! C,/4F,/4G,/4C/4 C,/4F,/4G,/4C/4!ped-up!!ped! C,/4E,/4G,/4C/4 C,/4E,/4G,/4C/4!ped-up! | %202
!mf!!ped! F,,/4A,,/4C,/4F,/4 F,,/4A,,/4C,/4F,/4!ped-up!"_cresc." (3F,,/_A,,/C,/ (3F,,/A,,/C,/ | %203
!f!!ped! C,,/4F,,/4G,,/4C,/4 C,,/4F,,/4G,,/4C,/4!ped-up!!ped! C,,/4E,,/4G,,/4C,/4 C,,/4E,,/4G,,/4C,/4!ped-up! | %204
!ped! F,,!ped-up! z!ped! [C,,C,]!ped-up! z |1!ped! [F,,,F,,]2!ped-up! z2 :|2 %206
!ped! [F,,,F,,]2!ped-up! !fermata!z |][K:Ab][M:3/4]!pp! C,,2 | F,,2 A,,2 =E,,2 | F,,2 A,,2 C,2 | %210
 D,2 B,,2 =E,2 | F,2 C,2 G,2 | A,2 F,2 [G,B,]2 | [A,C]4 x2 | E,2 E,,2 E,,2 | .A,,2!p! .A,,,2 :: %216
 z2 | z2 z2 .[A,C]2 | [B,D]4 .[B,D]2 | [B,D]4 .[B,D]2 | [CE]4 .[CE]2 | [CE]4 .[CE]2 | %222
 [DF]4 .[DF]2 | [DF]4 .[DF]2 | !fermata![C=E]4 z2 | z6 | z6 | z6 | z2 z2[K:treble]!pp! (c2 | %229
 d2 B2 =e2 |!ped! f2 c2)!ped-up![K:bass] C2 |!ped! (D2 B,2!ped-up! =E2 |!ped! D2 B,2!ped-up! =E2) | %233
 C4 C2 | F,2 z2 (C,2 |!ped! D,2 B,,2!ped-up! =E,2 |!ped! D,2 B,,2!ped-up! =E,2) | C,4 C,2 | %238
 [F,,F,]2 z2 z2 |!ped! (B,4!ped-up! A,2) |!ped! ([G,B,]4!ped-up! [F,A,]2) |!mp! [C,=E,G,C]6 | %242
!p! [F,A,C]2 z2 z2 |[K:treble] ([GB]4 [FA]2 | [=EG]2) z2[K:bass] !wedge!.[C,C]2 | %245
 !wedge!.[F,,F,]2 z2 z2 | z2 z2 :|[K:Db]!ped! [D,,D,]2!ped-up! | %248
!ped! (.[D,,D,]4!ped-up!!ped! .[D,,D,]2)!ped-up! | %249
!ped! (.[D,,D,]4!ped-up!!ped! .[D,,D,]2)!ped-up! |!ped! [D,,D,]6-!ped-up! |!ped! [D,,D,]6!ped-up! | %252
!ped! (.[C,,C,]4!ped-up!!ped! .[C,,C,]2)!ped-up! | %253
!ped! (.[C,,C,]4!ped-up!!ped! .[C,,C,]2)!ped-up! |!ped! [D,,D,]6-!ped-up! | %255
!ped! [D,,D,]2!ped-up! z2 z2 |!ped! (.[D,A,]4!ped-up!!ped! .[D,A,]2)!ped-up! | %257
!ped! (.[C,A,]4!ped-up!!ped! .[C,A,]2)!ped-up! |!ped! ([B,,-E,-A,]6!ped-up! | %259
!ped! [B,,E,=G,]4)!ped-up! [C,E,A,]2 |!ped! [D,F,B,]4!ped-up! [=D,F,_C]2 | %261
!ped! [E,=C]4!ped-up! [E,B,]2 |!ped! (=G,6!ped-up! | A,2) z2 z2 | z2!ped! [D,,D,]2!ped-up! z2 | %265
 z2!ped! [D,,D,]2!ped-up! z2 | z2!ped! (D,2 E,F,!ped-up! | G,F,).E,.D,.C,.B,, | %268
 .=A,,2!ped! .A,,2!ped-up! z2 | z2!ped! .=A,,2!ped-up! z2 | z2!ped! (=A,,2 B,,C,!ped-up! | %271
 D,C,).B,,._A,,.=G,,.F,, | .=E,,2!ped! .E,,2!ped-up! z2 | z2!ped! .=E,,2!ped-up! z2 | %274
 z2!ped! (=E,,2 F,,=G,,!ped-up! | A,,=G,,).F,,._E,,.D,,.C,, | D,,2!ped! D,,2!ped-up! z2 | %277
 z2!ped! E,,2!ped-up! z2 | z2 (A,,,C,,E,,A,,) | A,,,2 z2!pp! [F,A,_C]2 | %280
!ped!!<(! (.[F,A,_C]4!ped-up!!ped! .[F,A,C]2)!ped-up! | %281
!ped! (.[E,F,A,_C]4!ped-up!!ped! .[E,F,A,C]2)!<)!!ped-up! |!p!!>(! ([=D,-F,-A,-_C]6 | %283
!pp!!ped! [D,F,A,B,]2)!>)!!ped-up! z2 z2 |!ped!!<(! (.[E,G,B,]4!ped-up!!ped! .[E,G,B,]2)!ped-up! | %285
!ped! (.[_D,E,G,__B,]4!ped-up!!ped! .[D,E,G,B,]2)!<)!!ped-up! | %286
!p!!ped!!>(! ([C,-E,-G,-__B,]6!ped-up! |!pp!!ped! [C,E,G,A,]2)!>)!!ped-up! z2 z2 | %288
 .D,2!ped! .D2!ped-up! z2 | z2!ped! .D2!ped-up! z2 | z2 (D2 EF | GF).E.D.C.B, | %292
!p!"_cresc." =A,2[K:treble] =A2 z2 | z2 =A2 z2 | z2 B4- | B2 z2 z2 | %296
[K:bass]!ped! (.[=G,,=E,]4!ped-up!!ped! .[G,,E,]2)!ped-up! | %297
!ped! (.[=G,,=E,]4!ped-up!!ped! .[G,,E,]2)!ped-up! |!ped! ([A,,-=E,]6!ped-up! | %299
!ped! [A,,F,]2)!ped-up! z2 z2 | [A,,_G,]4 [A,,G,]2 | [A,,_G,]4 [A,,G,]2 | [D,F,]2 z2 z2 | %303
 z2 z2!pp! [F,A,_C]2 |!ped!!<(! (.[F,A,_C]4!ped-up!!ped! .[F,A,C]2)!ped-up! | %305
!ped! (.[E,F,A,_C]4!ped-up!!ped! .[E,F,A,C]2)!<)!!ped-up! |!p!!ped!!>(! ([=D,-F,-A,-_C]6!ped-up! | %307
!pp!!ped! [D,F,A,B,]2)!>)!!ped-up! z2 z2 |!ped!!<(! (.[E,G,B,]4!ped-up!!ped! .[E,G,B,]2)!ped-up! | %309
!ped! (.[_D,E,G,__B,]4!ped-up!!ped! .[D,E,G,B,]2)!<)!!ped-up! | %310
!p!!ped!!>(! ([C,-E,-G,-__B,]6!ped-up! |!pp!!ped! [C,E,G,A,]2)!>)!!ped-up! z2 z2 | %312
 .D,2!ped! .D2!ped-up! z2 | z2!ped! .D2!ped-up! z2 | z2 (D2 EF | GF).E.D.C.B, | %316
!p!"_cresc." =A,2[K:treble] =A2 z2 | z2 =A2 z2 | z2 B4- | B2 z2 z2 | %320
[K:bass]!ped! (.[=G,,=E,]4!ped-up!!ped! .[G,,E,]2)!ped-up! | %321
!ped! (.[=G,,=E,]4!ped-up!!ped! .[G,,E,]2)!ped-up! |!ped! ([A,,-=E,]6!ped-up! | %323
!ped! [A,,F,]6)!ped-up! | [A,,_G,]4 [A,,G,]2 | [A,,_G,]4 [A,,G,]2 | [D,F,]2 z2 z2 |"^1" z6 | %328
!ped! (.D,4!ped-up!!ped! .D,2)!ped-up! |!ped! (.D,4!ped-up!!ped! .D,2)!ped-up! | %330
!ped! C,6-!ped-up! |!ped! C,6!ped-up! | [C,,C,]4 [C,,C,]2 | [C,,=C,]4 [C,,C,]2 || %334
[K:Ab]!pp! (F,,2 A,,2 =E,,2 | F,,2 A,,2 C,2 | D,2 B,,2 =E,2 | F,2 C,2 G,2 | A,2 F,2 [G,B,]2 | %339
 [A,C]4 x2 | E,2) E,,2 E,,2 |!p! .A,,2 .A,,,2 C,,2 | (F,,2 A,,2 =E,,2 | F,,2 A,,2 C,2 | %344
 D,2 B,,2 =E,2 | F,2 C,2 G,2 | A,2 F,2 [G,B,]2 | [A,C]2 F,2 D,2 | E,2) E,,2 E,,2 | %349
!p! .A,,2 .A,,,2 z2 | A,CA,C!ped!A,C!ped-up! | _B,DB,D!ped!B,D!ped-up! | B,DB,D!ped!B,D!ped-up! | %353
 CECE!ped!CE!ped-up! | CECE!ped!CE!ped-up! | _DFDF!ped!DF!ped-up! | =DFDF!ped!DF!ped-up! | %357
[K:treble]!ped! [C=E]4!ped-up! z2 | z2 z2 (c2 | A2 F2 A2 | B2 F2 B2 | A2 F2 c2 | d2 B2 =e2 | %363
 f2 c2)[K:bass] (C2 |!ped! D2 B,2!ped-up! =E2) |!ped! D2 B,2!ped-up! =E2 | C2 C2 C2 | F,2 z2 (C,2 | %368
!ped! D,2 B,,2!ped-up! =E,2 |!ped! D,2 B,,2!ped-up! =E,2) | C,2 C,2 C,2 | [F,,F,]2 z2 z2 | %372
!ped! z2 (B,2!ped-up! A,2) |!ped! z2 ([G,B,]2!ped-up! [F,A,]2) |!mp!!ped! [C,=E,G,C]6!ped-up! | %375
!p!!ped! [F,A,C]2!ped-up! z2 z2 |[K:treble]!ped! z2 ([GB]2!ped-up! [FA]2 | %377
!ped! [=EG]2)!ped-up! z2[K:bass] !wedge!.[C,C]2 | !wedge!.[F,,F,]2 z2 z2 | !fermata!z6 |] %380
[K:F][M:2/4]!mp! .C, | .F,.F,.F,.C, | .A,.A,.A,.F, | .C.C (C/D/C/B,/) | .A,.A, (A,/B,/A,/G,/) | %385
 .A,(C/B,/) .A,.G, | .F,.E,.F,.D, | .E,.C,.D,.E, | .F,.G,.A,.=B, | %389
[K:treble]!mp! .[CE].[DF].[EG].[DF] | .[CE].[=B,D].[CE].[A,C] | .[=B,D].[G,B,].[A,C].[B,D] | %392
 .[CE].[DF]"_cresc.".[EG].[CE] | .[^CE].[A,C].[=B,D].[CE] | .[DF].[EG]!mp!.[FA].[DF] | %395
 .[=B,DG].[B,DG].[CEG] z | .[=B,DG].[B,DG].[CEG] z |[K:bass] [F,A,D] z [G,=B,D] z | [C,E,G,C]2 z2 | %399
 .[=B,,D,F,G,].[B,,D,F,G,].[C,E,G,] z | .[=B,,D,F,G,].[B,,D,F,G,].[C,E,G,] z |!f! .F,,.F,.F,.F, | %402
 .G,,.G,.G,.G, | .C,.C,.C,.G,, | .C,.C,.C,.G,, | .D,.C,.=B,,.A,, | .G,,.A,,.=B,,.G,, | %407
 .C,.C,.C,.G,, | .C,.C,.C,.G,, | .D,.C,.=B,,.A,, | .G,,.A,,.=B,,.G,, | .[C,,C,].G,,.[C,,C,].G,, | %412
 [C,,C,]2 z :: ._E,, | ._A,,.A,,{/B,,} (A,,/G,,/A,,/_B,,/) | .C,.C,{/_D,} (C,/=B,,/C,/_D,/) | %416
 ._E,.E,{/F,} (E,/=D,/E,/F,/) | .G,.G, (G,/_E,/F,/G,/) | _A,/C/A,/C/ A,/C/A,/C/ | %419
 _A,/C/A,/C/ A,/C/A,/C/ | _A,/B,/A,/B,/ A,/B,/A,/B,/ | [_E,G,]/B,/[E,G,]/B,/ [E,G,]/B,/[E,G,]/B,/ | %422
 _A,2 z[K:treble]!p! .C | ._A.A.A._E | .c.c (c/_d/c/B/) | .=A._e (e/f/e/_d/) | .c.c (c/_d/c/B/) | %427
 .A.A (A/B/A/F/) | B2 z2 | ._d.d (d/_e/d/c/) | .B.B (B/c/B/_A/) | (G/_A/G/F/ E/D/E/C/) | F4 | G4 | %434
 C4 | D4 | G,4 |[K:bass] [D,D]4 | [G,,G,]4 |[K:bass] [A,,A,]4 | [D,,D,]4 | [A,,A,]4 | [D,,D,]4 | %443
 [B,,,B,,]4 | .[A,,,A,,].E, (E,/^D,/E,/^C,/) | .F,.F, (F,/E,/F,/=D,/) | .E,.E, (E,/^D,/E,/^C,/) | %447
 .F,.F, (F,/E,/F,/=D,/) | E,2 z2 | z4 | .D.D.D.A, | .D.D.D.A, | .E.D.^C.=B, | .A,.^C.=B,.A, | %454
 .D.D.D.A, | .D.D.D.A, | .E.D.^C.=B, | .A,.^C.=B,.A, |[K:treble] .d.c.=B.A | .G.=B.A.G | %460
 .c._B.A.G | .F.A.G.F | .B.c.B.A | .G.F.E.D |[K:bass] .C.=B,._B,.A, | .G,.F,.E,.D, | C,2 z2 | %467
 z2 z!ff! (3(C,,/D,,/E,,/) | .F,,.F,,.F,,.C,, | .A,,.A,,.A,,.F,, | .C,.C, (C,/D,/C,/B,,/) | %471
 .A,,.A,, (A,,/B,,/A,,/G,,/) | F,,C/B,/ A,/G,/F,/E,/ | F,/E,/D,/C,/ B,,/A,,/G,,/F,,/ | %474
 E,,/F,,/G,,/F,,/ E,,/C,,/D,,/E,,/ | .F,,._E,,.D,,.F,, | .G,,.G,,.G,,.D,, | .B,,.B,,.B,,.G,, | %478
 .D,.D, (D,/_E,/D,/C,/) | .B,,.B,, (B,,/C,/B,,/A,,/) | G,,D/C/ B,/A,/G,/^F,/ | %481
 G,/=F,/_E,/D,/ C,/B,,/A,,/G,,/ | ^F,,/G,,/A,,/G,,/ F,,/D,,/E,,/F,,/ | .G,,._G,,.F,,.A,, | %484
 .B,,.B,,.B,,.F,, | .D,.D,.D,.B,, | .F,.F, (F,/G,/F,/_E,/) | .D,.D, (D,/_E,/D,/C,/) | %488
 B,,!p!!ped!B,/_D/ B,/D/B,/D/!ped-up! |!ped! B,/_D/B,/D/ B,/D/B,/D/!ped-up! | %490
!ped!"_cresc." F,/C/A,/C/ A,/C/A,/C/!ped-up! |!ped! B,/_D/B,/D/ B,/D/B,/D/!ped-up! | %492
!ped! F,/C/A,/C/ A,/C/A,/C/!ped-up! |!ped! B,/_D/B,/D/ B,/D/!ped-up!!ped!C/_E/!ped-up! | %494
 _D/F/D/F/ D/F/!ped!C/_E/!ped-up! | B,/_D/B,/D/ B,/D/!ped!_A,/C/!ped-up! | %496
!mf! =G,/B,/G,/B,/ G,/B,/G,/B,/ |!ped! _A,/C/!ped-up!A,/C/!ped! E,/C/!ped-up!E,/C/ | %498
!ped! F,/C/!ped-up!F,/C/!ped! _E,/F,/!ped-up!E,/F,/ | %499
!ped! _D,/F,/!ped-up!D,/F,/!ped! A,,/F,/!ped-up!A,,/F,/ | %500
!f!!ped! B,,/F,/B,,/F,/!ped-up! B,,/F,/C,/F,/ | %501
!ped! _D,/F,/D,/F,/!ped-up! D,/F,/!ped!_D,,/D,/!ped-up! | %502
 C,,/C,/C,,/C,/ C,,/C,/!ped!E,,/E,/!ped-up! | F,,/F,/F,,/F,/ F,,/F,/!ped!A,,,/A,,/!ped-up! | %504
!mf! B,,,/B,,/B,,,/B,,/ B,,,/B,,/=B,,,/=B,,/ | %505
!ped! C,,/C,/C,,/C,/!ped-up!!ped! C,,/C,/C,,/C,/!ped-up! | .F,.F,.F,.C, | .F,.F,.F,.C, | %508
 .G,.F,.E,.D, | .C,.D,.E,.C, | .F,.F,.F,.C, | .F,.F,.F,.C, | .G,.F,.E,.D, | .C,.D,.E,.C, | %514
 z .F.F.C | .F.F.F.C | .G.F.E.D | .C.E.D.C | .F.F.F.C | .F.F.F.C | .G.F.E.D | .C.E.D.C | %522
[K:treble] .F .e.d.c | .B.A.G.c |[K:bass] .F"_cresc." .E.D.C | .B,.A,.G,.C | %526
 .[F,A,].[F,A,].[F,A,].[F,A,] | .[F,G,].[F,G,].[E,G,].[E,G,] | .F,.C,,.C,,.C,, | .C,,.C,,.D,,.E,, | %530
 [F,,,F,,]2 z2 | !fermata!z2 z :| %532
V:3
 x | x4 | x4 | x4 | x4 | x4 | x4 | x4 | x4 | (5:2:5x/x/x/ a/b/ x x2 | x4 | x4 | x4 | x4 | x4 | x4 | %16
 x2 x (^D | .E)(^D .E)(D | .E2) x x | x4 | x4 | x4 | x4 | x4 | x4 | x4 | x4 | x4 | x4 | x4 | %30
 ([cc'][=B=b]) x !wedge!.c | (c=B) x !wedge!.c' | (c'/=b/a/g/) x !wedge!.c | %33
 (c/=B/A/G/) x !wedge!.c' | x4 | x4 | x4 | x4 | x2 x (5:4:5x/4x/4x/4x/4x/4 | %39
 x2 x (5:4:5x/4x/4x/4x/4x/4 | x4 | x4 | x4 | x4 | x4 | x4 | x4 | x4 | x4 | x4 | x4 | x4 | x4 | x4 | %54
 x4 | x4 | x4 | x2[K:bass] x2 | (3x/x/x/x/4x/4x/4x/4 x/4x/4x/4x/4(3x/!trill)!x/x/ | %59
 x2[K:treble] x2 | x4 | x2[K:bass] x2 | (3x/x/x/x/4x/4x/4x/4 x/4x/4x/4x/4(3x/!trill)!x/x/ | %63
 x2[K:treble] x2 | (3x/x/x/x/4x/4x/4x/4 x/4x/4x/4x/4(3x/!trill)!x/x/ | x4 |1 x3 :|2 x4 |: x4 | x4 | %70
 x4 | x4 | x4 | x/ x/8x/8x/8x/8 x x2 | x4 | x4 | x4 | x4 | x4 | x4 | x4 | x4 | x4 | x4 | x4 | x4 | %86
 x4 | x4 | x4 | x4 | x4 | x4 | x4 | x4 | x4 | x4 | x4 | x4 | x4 | x4 | x4 | x4 | x4 | x4 | x4 | %105
 x4 | x4 | x4 | x4 | x4 | x4 | x4 | x4 | x4 | x4 | x4 | x4 | x4 | x3 ||[K:D] x | x4 | x4 | x4 | %123
 x4 | x4 | x4 | x4 | x4 | (5:2:5x/x/x/ f/g/ x x2 | x4 | x4 | x4 | x4 | x4 | x4 | x4 | x4 | x4 | %138
 x3 ||[K:F] x | x4 | x4 | x4 | x4 | (5:2:5x/x/x/ a/b/ x x2 | x4 | x4 | x4 | x4 | x4 | x4 | x4 | %152
 x4 | x4 | x4 | x4 | x4 | x4 | x4 | x4 | x4 | x4 | x4 | x4 | x4 | x4 | (f'e') x !wedge!f | %167
 (fe) x x | (f'/e'/d'/c'/) x !wedge!f | (f/e/d/c/) x !wedge!f | (f/e/d/c/) x !wedge!f | %171
 f/e/d/c/ =B/c/d/c/ | x4 | x2 x (5:4:5x/4x/4x/4x/4x/4 | x2 x (5:4:5x/4x/4x/4x/4x/4 | x4 | x4 | x4 | %178
 x4 | x4 | x4 | x4 | x4 | x4 | x4 | x4 | x4 | x4 | x4 | x4 | x f3 | x4 | x4 | x4 | x2[K:bass] x2 | %195
 (3x/x/x/x/4x/4x/4x/4 x/4x/4x/4x/4(3x/x/!trill)!x/ | x2[K:treble] x2 | x4 | x2[K:bass] x2 | %199
 (3x/x/x/x/4x/4x/4x/4 x/4x/4x/4x/4(3x/x/!trill)!x/ | x2[K:treble] x2 | %201
 (3x/x/x/x/4x/4x/4x/4 x/4x/4x/4x/4(3x/!trill)!x/x/ | x4 | %203
 (3x/x/x/x/4x/4x/4x/4 x/4x/4x/4x/4(3x/x/!trill)!x/ | x4 |1 x4 :|2 x3 |][K:Ab][M:3/4][K:bass] x2 | %208
 x6 | x6 |[K:treble] x6 | x6 | A2 F2 _E2- | E2 F4 | x6 | x4 :: z2 | z2 z2 .F2 | (F2 GF) .G2 | %219
 G2 z2 .G2 | (G2 =AG) .A2 | =A2 z2 .A2 | (=A2 BA) .B2 | =B4 .B2 | x6 | x6 | x6 | x6 | x6 | x6 | %230
 x6 | [Bd=e]6 | [Bd=e]6 | x6 | x6 | [B,D=E]6 | [B,D=E]6 | x6 | x6 | x6 | x6 | x6 | %242
 x4 (7:4:7x/x/x/x/x/ =B/c/ | c6- | c2 x2 x2 | x6 | x4 :|[K:Db] x2 | x6 | x6 | x6 | x6 | x6 | x6 | %254
 x6 | x6 | x6 | x6 | x6 | x6 | F4 F2 | (E4 _D2) | x6 | x6 | x6 | x6 | x6 | x6 | x6 | x6 | x6 | x6 | %272
 x6 | x6 | x6 | x6 | x6 | x6 | x6 | x6 | x6 | x6 | x6 | x6 | x6 | x6 | x6 | x6 | x6 | x6 | x6 | %291
 x6 | x6 | x6 | x6 | x6 | x6 | x6 | x6 | x6 | x6 | x6 | x6 | x6 | x6 | x6 | x2 x3/2"^" x/ x2 | %307
 x6 | x6 | x6 | x2 x3/2"^" x/ x2 | x6 | x6 | x6 | x6 | x6 | x6 | x6 | x6 | x6 | x6 | x6 | x6 | %323
 x6 | x6 | x6 | x6 | x6 | x6 | x6 | x6 | x6 | x6 | x6 ||[K:Ab] x6 | x6 | x6 | x6 | A2 F2 _E2- | %339
 E2 F4 | x6 | x5[K:bass] x | x6 | x6 | x5[K:treble] x | x6 | x6 | B A3 BF | BE- E2 D2 | C2 z2 z2 | %350
 z2 z2 .F2 | (F2 =EF) .G2 | G2 z2 .G2 | (G2 FG) .=A2 | =A2 z2 .A2 | (=A2 GA) .B2 | =B4 .B2 | x6 | %358
 x6 | x6 | x6 | x6 | x6 | x6 | z [Bd]2 [Bd]2 [Bd] | z [Bd]2 [Bd]2 [Bd] | z A2 B2 G | A2 z2 z2 | %368
 z [B,D]2 [B,D]2 [B,D] | z [B,D]2 [B,D]2 [B,D] | z A,2 B,2 G, | x6 | z C2 C2 C | z C2 C2 C | x6 | %375
 x4 (7:4:7x/x/x/x/x/ (=B/c/) | z"_cresc." c2 c2 c- | c(c=Bc) =e2 | f2 x2 x2 | x6 |][K:F][M:2/4] x | %381
 x4 | x4 | x4 | x4 | x4 | x4 | x4 | .A.A G/A/G/F/ | x4 | x4 | x4 | x4 | x4 | x4 | x4 | x4 | x4 | %398
 x4 | x4 | x4 | x4 | x4 | x4 | x4 | x4 | x4 | x4 | x4 | x4 | x4 | x4 | x3 :: x | x4 | x4 | x4 | %417
 x4 | x4 | x4 | x4 | x4 | x4 | x4 | x4 | x4 | ._e.e (e/f/e/_d/) | c2 x2 | x4 | x4 | x4 | x4 | x4 | %433
 .f.f (f/_e/f/d/) | _e2 z2 | .c.c (c/=B/c/A/) | ._B.B (B/A/B/G/) | c4 | B2 z2 | .G.G (G/=F/G/E/) | %440
 .F.F (F/E/F/D/) | G4 | F2 z2 | .F.F (F/E/F/D/) | .^C.C (C/=B,/C/A,/) | .D.D (D/^C/D/=B,/) | %446
 .^C.C (C/=B,/C/A,/) | .D.D (D/^C/D/=B,/) | ^C (a/^g/ a/g/a/g/) | x4 | .A.A.A.d | .A.A.A.d | %452
 .g.[ga].[ga].[ga] | .[ga].[ga].[ga].[ga] | .A.A.A.d | .A.A.A.d | .g.[ga].[ga].[ga] | %457
 .[ga].[ga].[ga].[ga] | .^f.f.f.f | .=f.f.f.f | .e.e.e.e | ._e.e.e.e | x4 | x4 | x4 | x4 | x4 | %467
 x4 | x4 | x4 | x4 | x4 | x4 | x4 | x4 | x4 | x4 | x4 | x4 | x4 | x4 | x4 | x4 | x4 | x4 | x4 | %486
 x4 | x4 | x4 | x4 | x4 | x4 | x4 | x4 | x4 | x4 | x4 | x4 | x4 | x4 | x4 | x4 | x4 | x4 | x4 | %505
 x4 | x4 | x4 | x4 | x4 | x4 | x4 | x4 | x4 | x .c.c.f | .c.c.c.f | .c.d.e.f | .g.e.f.g | %518
 .c.c.c.f | .c.c.c.f | .c.d.e.f | .g.e.f.g | f x x x | x4 | x4 | x4 | x4 | x4 | x4 | x4 | x4 | %531
 x3 :| %532
V:4
 x | x4 | x4 | x4 | x4 |[K:treble] x4 | x4 | x4 | x4 | x4 | x4 | x4 | x3[K:bass] x | x4 | x4 | x4 | %16
 x2 x (F, | .E,)(F, .E,)(F, | .E,2) x x | x4 | x4 | x4 | x4 | x4 | x4 | x4 | x4 | x4 | x4 | x4 | %30
 G,2 A,2 | G,2 ^F,2 | G,2 A,2 | G,2 ^F,2 | G,2 ^F,2 | G,2 ^F,2 | x4 | x4 |[K:treble] (=F.D).=B,.C | %39
 (=F.D).=B,.C |[K:bass] x4 | x3[K:treble] x | x4 | x4 |[K:bass] x4 | x4 | x4 | x4 | x4 | x4 | x4 | %51
 x4 | x4 | x4 | x4 |[K:treble] x4 | x4 |[K:bass] x4 | x4 | x4 | x4 | x4 | x4 | x4 | x4 | x4 |1 %66
 x3 :|2 x4 |: x4 | x4 | x4 | x4 | x4 | x4 | x4 | x4 | x4 | x4 | x4 | x4 | x4 | x4 | x4 | x4 | x4 | %85
 x4 | x4 | x4 | x4 | x4 | x4 | x4 | x4 | x4 | x4 | x4 |[K:treble] x4 | x4 |[K:bass] x4 | x4 | %100
[K:bass] x4 | x4 | x4 | x4 | x4 | x4 |[K:bass] x4 | x4 | x4 | x4 | x4 | x4 | x4 | x4 | x4 | x4 | %116
 x4 | x4 | x3 ||[K:D] x | x4 | x4 | x4 | x4 |[K:bass] x4 | x4 |[K:treble] x4 | x4 | x4 | %129
 x2[K:bass] x2 | x4 | x4 | x4 | x4 | x4 | x4 | x4 | x4 | x3 ||[K:F] x |[K:treble] x4 | x4 | x4 | %143
 x4 | x4 | x4 | x4 |[K:bass] x4 | x4 | x4 | x4 | x4 | x4 | x4 | x4 | x4 | C,4- | C,3 [F,_A,] | x4 | %159
 x4 | _E,4- | E,3 [B,_D] | x4 | x4 | x4 | C,2 =B,,2 | C,2 D,2 | C,2 =B,,2 | C,2 D,2 | C,2 D,2 | %170
 C,2 D,2 | x4 | x4 | (_B,.G,).E,.F, | (B,.G,).E,.F, | x4 | x3[K:treble] x | x4 | x4 | x4 | x4 | %181
[K:bass] x4 | x4 | x4 | x4 | x4 | x4 | x4 | x4 | x4 | x[K:treble] [DF]3 | x4 |[K:bass] x4 | x4 | %194
 x4 |[K:treble] x4 |[K:bass] x4 | x4 | x4 |[K:treble] x4 |[K:bass] x4 | x4 | x4 | x4 | x4 |1 x4 :|2 %206
 x3 |][K:Ab][M:3/4] x2 | x6 | x6 | x6 | x6 | x6 | A,2 F,2 D,2 | x6 | x4 :: x2 | x6 | x6 | x6 | x6 | %221
 x6 | x6 | x6 | x6 | x6 | x6 | x6 | x4[K:treble] x2 | x6 | x4[K:bass] x2 | x6 | x6 | x6 | x6 | x6 | %236
 x6 | x6 | x6 | C,6- | C,6 | x6 | x6 |[K:treble] C6- | C2 x2[K:bass] x2 | x6 | x4 :|[K:Db] x2 | %248
 x6 | x6 | x6 | x6 | x6 | x6 | x6 | x6 | x6 | x6 | x6 | x6 | x6 | x6 | x4 E,2- | E,2 x2 x2 | x6 | %265
 x6 | x6 | x6 | x6 | x6 | x6 | x6 | x6 | x6 | x6 | x6 | x6 | x6 | x6 | x6 | x6 | x6 | x6 | x6 | %284
 x6 | x6 | x6 | x6 | x6 | x6 | x6 | x6 | x2[K:treble] x4 | x6 | x6 | x6 |[K:bass] x6 | x6 | x6 | %299
 x6 | x6 | x6 | x6 | x6 | x6 | x6 | x6 | x6 | x6 | x6 | x6 | x6 | x6 | x6 | x6 | x6 | %316
 x2[K:treble] x4 | x6 | x6 | x6 |[K:bass] x6 | x6 | x6 | x6 | x6 | x6 | x6 | x6 | x6 | x6 | x6 | %331
 x6 | x6 | x6 ||[K:Ab] x6 | x6 | x6 | x6 | x6 | A,2 F,2 D,2 | x6 | x6 | x6 | x6 | x6 | x6 | x6 | %347
 x6 | x6 | x6 | x6 | x6 | x6 | x6 | x6 | x6 | x6 |[K:treble] x6 | x6 | x6 | x6 | x6 | x6 | %363
 x4[K:bass] x2 | x6 | x6 | x6 | x6 | x6 | x6 | x6 | x6 | C,6- | C,6 | x6 | x6 |[K:treble] C6- | %377
 C2 x2[K:bass] x2 | x6 | x6 |][K:F][M:2/4] x | x4 | x4 | x4 | x4 | x4 | x4 | x4 | x4 | %389
[K:treble] x4 | x4 | x4 | x4 | x4 | x4 | x4 | x4 |[K:bass] x4 | x4 | x4 | x4 | x4 | x4 | C,,4 | %404
 C,,4 | C,,4- | C,,4 | C,,4 | C,,4 | C,,4- | C,,4 | x4 | x3 :: x | x4 | x4 | x4 | x4 | x4 | x4 | %420
 x4 | x4 | x3[K:treble] x | x4 | x4 | x4 | x4 | x4 | x4 | x4 | x4 | x4 | x4 | x4 | x4 | x4 | x4 | %437
[K:bass] x4 | x4 |[K:bass] x4 | x4 | x4 | x4 | x4 | x4 | A,,4 | A,,4 | A,,4 | A,,2 x2 | x4 | D,4 | %451
 D,4 | D,4- | D,4 | D,4 | D,4 | D,4- | D,4 |[K:treble] x4 | x4 | x4 | x4 | x4 | x4 |[K:bass] x4 | %465
 x4 | x4 | x4 | x4 | x4 | x4 | x4 | x4 | x4 | x4 | x4 | x4 | x4 | x4 | x4 | x4 | x4 | x4 | x4 | %484
 x4 | x4 | x4 | x4 | x4 | x4 | x4 | x4 | x4 | x4 | x4 | x4 | x4 | x4 | x4 | x4 | x4 | x4 | x4 | %503
 x4 | x4 | x4 | F,,4 | F,,4 | F,,4- | F,,4 | F,,4 | F,,4 | F,,4- | F,,4 | F,4 | F,4 | F,4- | F,4 | %518
 F,4 | F,4 | F,4- | F,4 |[K:treble] x4 | x4 |[K:bass] x4 | x4 | x4 | x4 | x4 | x4 | x4 | x3 :| %532
V:5
 x | x4 | x4 | x4 | x4 | x4 | x4 | x4 | x4 | x4 | x4 | x4 | x4 | x4 | x4 | x4 | x4 | x4 | x4 | x4 | %20
 x4 | x4 | x4 | x4 | x4 | x4 | x4 | x4 | x4 | x4 | x4 | x4 | x4 | x4 | x4 | x4 | x4 | x4 | x4 | %39
 x4 | x4 | x4 | x4 | x4 | x4 | x4 | x4 | x4 | x4 | x4 | x4 | x4 | x4 | x4 | x4 | x4 | x4 | %57
 x2[K:bass] x2 | x4 | x2[K:treble] x2 | x4 | x2[K:bass] x2 | x4 | x2[K:treble] x2 | x4 | x4 |1 %66
 x3 :|2 x4 |: x4 | x4 | x4 | x4 | x4 | x4 | x4 | x4 | x4 | x4 | x4 | x4 | x4 | x4 | x4 | x4 | x4 | %85
 x4 | x4 | x4 | x4 | x4 | x4 | x4 | x4 | x4 | x4 | x4 | x4 | x4 | x4 | x4 | x4 | x4 | x4 | x4 | %104
 x4 | x4 | x4 | x4 | x4 | x4 | x4 | x4 | x4 | x4 | x4 | x4 | x4 | x4 | x3 ||[K:D] x | x4 | x4 | %122
 x4 | x4 | x4 | x4 | x4 | x4 | x4 | x4 | x4 | x4 | x4 | x4 | x4 | x4 | x4 | x4 | x3 ||[K:F] x | %140
 x4 | x4 | x4 | x4 | x4 | x4 | x4 | x4 | x4 | x4 | x4 | x4 | x4 | x4 | x4 | x4 | x4 | x4 | x4 | %159
 x4 | x4 | x4 | x4 | x4 | x4 | x4 | x4 | x4 | x4 | x4 | x4 | x4 | x4 | x4 | x4 | x4 | x4 | x4 | %178
 x4 | x4 | x4 | x4 | x4 | x4 | x4 | x4 | x4 | x4 | x4 | x4 | x4 | x4 | x4 | x4 | x2[K:bass] x2 | %195
 x4 | x2[K:treble] x2 | x4 | x2[K:bass] x2 | x4 | x2[K:treble] x2 | x4 | x4 | x4 | x4 |1 x4 :|2 %206
 x3 |][K:Ab][M:3/4][K:bass] x2 | x6 | x6 |[K:treble] x6 | x6 | x6 | x6 | x6 | x4 :: x2 | x6 | x6 | %219
 x6 | x6 | x6 | x6 | (5:4:5x/x/x/x/x/x/x/ =e/f/ x2 | x6 | x6 | x6 | x6 | x6 | x6 | x6 | x6 | x6 | %233
 x6 | x6 | x6 | x6 | x6 | x6 | x6 | x6 | x6 | x6 | x6 | x6 | x6 | x4 :|[K:Db] x2 | x6 | x6 | x6 | %251
 x6 | x6 | x6 | x6 | x6 | x6 | x6 | x6 | x6 | x6 | x6 | x6 | x6 | x6 | x6 | x6 | x6 | x6 | x6 | %270
 x6 | x6 | x6 | x6 | x6 | x6 | x6 | x6 | x6 | x6 | x6 | x6 | x6 | x6 | x6 | x6 | x6 | x6 | x6 | %289
 x6 | x6 | x6 | x6 | x6 | x6 | x6 | x6 | x6 | x6 | x6 | x6 | x6 | x6 | x6 | x6 | x6 | x6 | x6 | %308
 x6 | x6 | x6 | x6 | x6 | x6 | x6 | x6 | x6 | x6 | x6 | x6 | x6 | x6 | x6 | x6 | x6 | x6 | x6 | %327
 x6 | x6 | x6 | x6 | x6 | x6 | x6 ||[K:Ab] x6 | x6 | x6 | x6 | x6 | x6 | x6 | x5[K:bass] x | x6 | %343
 x6 | x5[K:treble] x | x6 | x6 | x4 B2- | B2 A2 G2 | x6 | x6 | x6 | x6 | x6 | x6 | x6 | %356
 (5:4:5x/x/x/x/x/x/x/ =e/f/ x2 | x6 | x6 | x6 | x6 | x6 | x6 | x6 | x6 | x6 | x6 | x6 | x6 | x6 | %370
 x6 | x6 | x6 | x6 | x6 | x6 | x6 | x6 | x6 | x6 |][K:F][M:2/4] x | x4 | x4 | x4 | x4 | x4 | x4 | %387
 x4 | x4 | x4 | x4 | x4 | x4 | x4 | x4 | x4 | x4 | x4 | x4 | x4 | x4 | x4 | x4 | x4 | x4 | x4 | %406
 x4 | x4 | x4 | x4 | x4 | x4 | x3 :: x | x4 | x4 | x4 | x4 | x4 | x4 | x4 | x4 | x4 | x4 | x4 | %425
 x4 | x4 | x4 | x4 | x4 | x4 | x4 | x4 | x4 | x4 | x4 | x4 | x4 | x4 | x4 | x4 | x4 | x4 | x4 | %444
 x4 | x4 | x4 | x4 | x4 | x4 | x4 | x4 | x4 | x4 | x4 | x4 | x4 | x4 | x4 | x4 | x4 | x4 | x4 | %463
 x4 | x4 | x4 | x4 | x4 | x4 | x4 | x4 | x4 | x4 | x4 | x4 | x4 | x4 | x4 | x4 | x4 | x4 | x4 | %482
 x4 | x4 | x4 | x4 | x4 | x4 | x4 | x4 | x4 | x4 | x4 | x4 | x4 | x4 | x4 | x4 | x4 | x4 | x4 | %501
 x4 | x4 | x4 | x4 | x4 | x4 | x4 | x4 | x4 | x4 | x4 | x4 | x4 | x4 | x4 | x4 | x4 | x4 | x4 | %520
 x4 | x4 | x4 | x4 | x4 | x4 | x4 | x4 | x4 | x4 | x4 | x3 :| %532
V:6
 x | x4 | x4 | x4 | x4 |[K:treble] x4 | x4 | x4 | x4 | x4 | x4 | x4 | x3[K:bass] x | x4 | x4 | x4 | %16
 x4 | x4 | x4 | x4 | x4 | x4 | x4 | x4 | x4 | x4 | x4 | x4 | x4 | x4 | x4 | x4 | x4 | x4 | x4 | %35
 x4 | x4 | x4 |[K:treble] x4 | x4 |[K:bass] x4 | x3[K:treble] x | x4 | x4 |[K:bass] x4 | x4 | x4 | %47
 x4 | x4 | x4 | x4 | x4 | x4 | x4 | x4 |[K:treble] x4 | x4 |[K:bass] x4 | x4 | x4 | x4 | x4 | x4 | %63
 x4 | x4 | x4 |1 x3 :|2 x4 |: x4 | x4 | x4 | x4 | x4 | x4 | x4 | x4 | x4 | x4 | x4 | x4 | x4 | x4 | %82
 x4 | x4 | x4 | x4 | x4 | x4 | x4 | x4 | x4 | x4 | x4 | x4 | x4 | x4 |[K:treble] x4 | x4 | %98
[K:bass] x4 | x4 |[K:bass] x4 | x4 | x4 | x4 | x4 | x4 |[K:bass] x4 | x4 | x4 | x4 | x4 | x4 | x4 | %113
 x4 | x4 | x4 | x4 | x4 | x3 ||[K:D] x | x4 | x4 | x4 | x4 |[K:bass] x4 | x4 |[K:treble] x4 | x4 | %128
 x4 | x2[K:bass] x2 | x4 | x4 | x4 | x4 | x4 | x4 | x4 | x4 | x3 ||[K:F] x |[K:treble] x4 | x4 | %142
 x4 | x4 | x4 | x4 | x4 |[K:bass] x4 | x4 | x4 | x4 | x4 | x4 | x4 | x4 | x4 | x4 | x4 | x4 | x4 | %160
 x4 | x4 | x4 | x4 | x4 | x4 | x4 | x4 | x4 | x4 | x4 | x4 | x4 | x4 | x4 | x4 | x3[K:treble] x | %177
 x4 | x4 | x4 | x4 |[K:bass] x4 | x4 | x4 | x4 | x4 | x4 | x4 | x4 | x4 | x[K:treble] x3 | x4 | %192
[K:bass] x4 | x4 | x4 |[K:treble] x4 |[K:bass] x4 | x4 | x4 |[K:treble] x4 |[K:bass] x4 | x4 | x4 | %203
 x4 | x4 |1 x4 :|2 x3 |][K:Ab][M:3/4] x2 | x6 | x6 | x6 | x6 | x6 | x6 | x6 | x4 :: x2 | x6 | x6 | %219
 x6 | x6 | x6 | x6 | x6 | x6 | x6 | x6 | x6 | x4[K:treble] x2 | x6 | x4[K:bass] x2 | x6 | x6 | x6 | %234
 x6 | x6 | x6 | x6 | x6 | x6 | x6 | x6 | x6 |[K:treble] x6 | x4[K:bass] x2 | x6 | x4 :|[K:Db] x2 | %248
 x6 | x6 | x6 | x6 | x6 | x6 | x6 | x6 | x6 | x6 | x6 | x6 | x6 | x6 | A,,6- | A,,2 x2 x2 | x6 | %265
 x6 | x6 | x6 | x6 | x6 | x6 | x6 | x6 | x6 | x6 | x6 | x6 | x6 | x6 | x6 | x6 | x6 | x6 | x6 | %284
 x6 | x6 | x6 | x6 | x6 | x6 | x6 | x6 | x2[K:treble] x4 | x6 | x6 | x6 |[K:bass] x6 | x6 | x6 | %299
 x6 | x6 | x6 | x6 | x6 | x6 | x6 | x6 | x6 | x6 | x6 | x6 | x6 | x6 | x6 | x6 | x6 | %316
 x2[K:treble] x4 | x6 | x6 | x6 |[K:bass] x6 | x6 | x6 | x6 | x6 | x6 | x6 | x6 | x6 | x6 | x6 | %331
 x6 | x6 | x6 ||[K:Ab] x6 | x6 | x6 | x6 | x6 | x6 | x6 | x6 | x6 | x6 | x6 | x6 | x6 | x6 | x6 | %349
 x6 | x6 | x6 | x6 | x6 | x6 | x6 | x6 |[K:treble] x6 | x6 | x6 | x6 | x6 | x6 | x4[K:bass] x2 | %364
 x6 | x6 | x6 | x6 | x6 | x6 | x6 | x6 | x6 | x6 | x6 | x6 |[K:treble] x6 | x4[K:bass] x2 | x6 | %379
 x6 |][K:F][M:2/4] x | x4 | x4 | x4 | x4 | x4 | x4 | x4 | x4 |[K:treble] x4 | x4 | x4 | x4 | x4 | %394
 x4 | x4 | x4 |[K:bass] x4 | x4 | x4 | x4 | x4 | x4 | x4 | x4 | x4 | x4 | x4 | x4 | x4 | x4 | x4 | %412
 x3 :: x | x4 | x4 | x4 | x4 | x4 | x4 | x4 | x4 | x3[K:treble] x | x4 | x4 | x4 | x4 | x4 | x4 | %429
 x4 | x4 | x4 | x4 | x4 | x4 | x4 | x4 |[K:bass] x4 | x4 |[K:bass] x4 | x4 | x4 | x4 | x4 | x4 | %445
 x4 | x4 | x4 | x4 | x4 | x4 | x4 | x4 | x4 | x4 | x4 | x4 | x4 |[K:treble] x4 | x4 | x4 | x4 | %462
 x4 | x4 |[K:bass] x4 | x4 | x4 | x4 | x4 | x4 | x4 | x4 | x4 | x4 | x4 | x4 | x4 | x4 | x4 | x4 | %480
 x4 | x4 | x4 | x4 | x4 | x4 | x4 | x4 | x4 | x4 | x4 | x4 | x4 | x4 | x4 | x4 | x4 | x4 | x4 | %499
 x4 | x4 | x4 | x4 | x4 | x4 | x4 | x4 | x4 | x4 | x4 | x4 | x4 | x4 | x4 | x4 | x4 | x4 | x4 | %518
 x4 | x4 | x4 | x4 |[K:treble] x4 | x4 |[K:bass] x4 | x4 | x4 | x4 | x4 | x4 | x4 | x3 :| %532

